;This Gcode was generated by ToolPathDesigner
;multipliar : 1
;width : 4
;brimBool : False
;printSpeed : 800
;fileName : new
;retractionSpeed : 2000
;brimCount : 2
;firstLayermulti : 0.6
;retraction : 0
;firstLayerPitch : 1
;filamentDiameter : 54.1
;nozzleDiameter : 4
G28

G1 Z100 F2000

G1 Y0 F3000

G4 P30000

;G29

M420 S1
modbus s1 f6 a40004 v1
modbus s1 f6 a40014 v1
;for auto-start
modbus s1 f6 a40002 v﻿9999
modbus s1 f6 a40012 v2000
; for layernumber1
modbus s1 f6 a40000 v1
modbus s1 f6 a40010 v1
; for material-pumping start 
; layer 1
G92 E0
G1 X205.073 Y59.672 Z1.0 E0 F2000.0
G1 X206.127 Y60.563 Z1.0 E0.0014 F800.0
G1 X210.877 Y66.239 Z1.0 E0.0092 F800.0
G1 X211.065 Y66.481 Z1.0 E0.0095 F800.0
G1 X211.2 Y66.67 Z1.0 E0.0097 F800.0
G1 X211.26 Y66.757 Z1.0 E0.0098 F800.0
G1 X214.964 Y72.242 Z1.0 E0.0168 F800.0
G1 X218.364 Y77.246 Z1.0 E0.0231 F800.0
G1 X218.4 Y77.302 Z1.0 E0.0231 F800.0
G1 X221.638 Y82.297 Z1.0 E0.0294 F800.0
G1 X221.732 Y82.44 Z1.0 E0.0295 F800.0
G1 X225.323 Y88.439 Z1.0 E0.0368 F800.0
G1 X225.413 Y88.597 Z1.0 E0.037 F800.0
G1 X225.477 Y88.717 Z1.0 E0.0372 F800.0
G1 X225.506 Y88.771 Z1.0 E0.0372 F800.0
G1 X229.271 Y96.026 Z1.0 E0.0458 F800.0
G1 X229.727 Y97.895 Z1.0 E0.0478 F800.0
G1 X229.727 Y100.063 Z1.0 E0.05 F800.0
G1 X229.271 Y101.932 Z1.0 E0.052 F800.0
G1 X225.506 Y109.187 Z1.0 E0.0606 F800.0
G1 X225.477 Y109.241 Z1.0 E0.0606 F800.0
G1 X225.413 Y109.361 Z1.0 E0.0608 F800.0
G1 X225.323 Y109.518 Z1.0 E0.061 F800.0
G1 X221.732 Y115.518 Z1.0 E0.0683 F800.0
G1 X221.659 Y115.63 Z1.0 E0.0684 F800.0
G1 X218.4 Y120.657 Z1.0 E0.0747 F800.0
G1 X218.364 Y120.713 Z1.0 E0.0747 F800.0
G1 X214.964 Y125.717 Z1.0 E0.0811 F800.0
G1 X211.26 Y131.202 Z1.0 E0.088 F800.0
G1 X211.2 Y131.289 Z1.0 E0.0881 F800.0
G1 X211.065 Y131.478 Z1.0 E0.0883 F800.0
G1 X210.877 Y131.72 Z1.0 E0.0886 F800.0
G1 X206.126 Y137.395 Z1.0 E0.0964 F800.0
G1 X205.073 Y138.286 Z1.0 E0.0978 F800.0
G1 X203.716 Y139.08 Z1.0 E0.0994 F800.0
G1 X202.391 Y139.57 Z1.0 E0.1009 F800.0
G1 X196.132 Y140.692 Z1.0 E0.1076 F800.0
G1 X195.805 Y140.737 Z1.0 E0.1079 F800.0
G1 X195.429 Y140.773 Z1.0 E0.1083 F800.0
G1 X195.09 Y140.791 Z1.0 E0.1087 F800.0
G1 X189.354 Y140.849 Z1.0 E0.1146 F800.0
G1 X183.92 Y140.888 Z1.0 E0.1203 F800.0
G1 X178.531 Y140.993 Z1.0 E0.1259 F800.0
G1 X172.957 Y141.212 Z1.0 E0.1318 F800.0
G1 X172.55 Y141.207 Z1.0 E0.1322 F800.0
G1 X172.112 Y141.18 Z1.0 E0.1326 F800.0
G1 X171.741 Y141.139 Z1.0 E0.133 F800.0
G1 X165.714 Y140.192 Z1.0 E0.1394 F800.0
G1 X164.039 Y139.522 Z1.0 E0.1413 F800.0
G1 X162.365 Y138.365 Z1.0 E0.1434 F800.0
G1 X161.144 Y137.029 Z1.0 E0.1453 F800.0
G1 X157.959 Y131.407 Z1.0 E0.1521 F800.0
G1 X157.792 Y131.077 Z1.0 E0.1524 F800.0
G1 X157.629 Y130.716 Z1.0 E0.1529 F800.0
G1 X157.505 Y130.405 Z1.0 E0.1532 F800.0
G1 X155.478 Y124.665 Z1.0 E0.1596 F800.0
G1 X153.533 Y119.132 Z1.0 E0.1657 F800.0
G1 X151.336 Y112.893 Z1.0 E0.1726 F800.0
G1 X151.334 Y112.883 Z1.0 E0.1726 F800.0
G1 X149.555 Y107.797 Z1.0 E0.1782 F800.0
G1 X149.544 Y107.767 Z1.0 E0.1783 F800.0
G1 X149.472 Y107.559 Z1.0 E0.1785 F800.0
G1 X147.375 Y100.868 Z1.0 E0.1858 F800.0
G1 X147.191 Y99.665 Z1.0 E0.1871 F800.0
G1 X147.191 Y98.293 Z1.0 E0.1885 F800.0
G1 X147.375 Y97.09 Z1.0 E0.1898 F800.0
G1 X149.472 Y90.4 Z1.0 E0.1971 F800.0
G1 X149.544 Y90.192 Z1.0 E0.1973 F800.0
G1 X149.562 Y90.144 Z1.0 E0.1974 F800.0
G1 X151.334 Y85.077 Z1.0 E0.203 F800.0
G1 X151.336 Y85.065 Z1.0 E0.203 F800.0
G1 X153.534 Y78.822 Z1.0 E0.2099 F800.0
G1 X155.477 Y73.298 Z1.0 E0.216 F800.0
G1 X157.505 Y67.553 Z1.0 E0.2224 F800.0
G1 X157.629 Y67.243 Z1.0 E0.2227 F800.0
G1 X157.792 Y66.882 Z1.0 E0.2231 F800.0
G1 X157.959 Y66.552 Z1.0 E0.2235 F800.0
G1 X161.14 Y60.935 Z1.0 E0.2303 F800.0
G1 X162.349 Y59.608 Z1.0 E0.2321 F800.0
G1 X164.02 Y58.444 Z1.0 E0.2343 F800.0
G1 X165.708 Y57.766 Z1.0 E0.2362 F800.0
G1 X171.742 Y56.819 Z1.0 E0.2425 F800.0
G1 X172.113 Y56.778 Z1.0 E0.2429 F800.0
G1 X172.55 Y56.751 Z1.0 E0.2434 F800.0
G1 X172.958 Y56.746 Z1.0 E0.2438 F800.0
G1 X178.535 Y56.966 Z1.0 E0.2496 F800.0
G1 X183.92 Y57.071 Z1.0 E0.2553 F800.0
G1 X189.35 Y57.11 Z1.0 E0.2609 F800.0
G1 X195.137 Y57.168 Z1.0 E0.267 F800.0
G1 X195.57 Y57.195 Z1.0 E0.2674 F800.0
G1 X195.945 Y57.24 Z1.0 E0.2678 F800.0
G1 X196.177 Y57.275 Z1.0 E0.2681 F800.0
G1 X202.39 Y58.388 Z1.0 E0.2747 F800.0
G1 X205.073 Y59.672 Z1.0 E0.2778 F800.0
G1 X202.754 Y62.95 Z1.0 E0.282 F800.0
G1 X203.281 Y63.395 Z1.0 E0.2827 F800.0
G1 X207.761 Y68.747 Z1.0 E0.29 F800.0
G1 X207.854 Y68.869 Z1.0 E0.2901 F800.0
G1 X207.929 Y68.973 Z1.0 E0.2903 F800.0
G1 X207.959 Y69.017 Z1.0 E0.2903 F800.0
G1 X211.655 Y74.491 Z1.0 E0.2972 F800.0
G1 X215.024 Y79.447 Z1.0 E0.3035 F800.0
G1 X215.078 Y79.532 Z1.0 E0.3036 F800.0
G1 X218.25 Y84.425 Z1.0 E0.3097 F800.0
G1 X218.342 Y84.564 Z1.0 E0.3098 F800.0
G1 X221.867 Y90.455 Z1.0 E0.317 F800.0
G1 X221.912 Y90.534 Z1.0 E0.3171 F800.0
G1 X221.948 Y90.6 Z1.0 E0.3172 F800.0
G1 X221.962 Y90.627 Z1.0 E0.3172 F800.0
G1 X225.499 Y97.441 Z1.0 E0.3252 F800.0
G1 X225.727 Y98.376 Z1.0 E0.3262 F800.0
G1 X225.727 Y99.582 Z1.0 E0.3275 F800.0
G1 X225.499 Y100.517 Z1.0 E0.3285 F800.0
G1 X221.962 Y107.331 Z1.0 E0.3365 F800.0
G1 X221.948 Y107.358 Z1.0 E0.3365 F800.0
G1 X221.912 Y107.424 Z1.0 E0.3366 F800.0
G1 X221.868 Y107.503 Z1.0 E0.3367 F800.0
G1 X218.342 Y113.395 Z1.0 E0.3439 F800.0
G1 X218.253 Y113.53 Z1.0 E0.3441 F800.0
G1 X215.085 Y118.416 Z1.0 E0.3501 F800.0
G1 X215.024 Y118.512 Z1.0 E0.3503 F800.0
G1 X211.655 Y123.468 Z1.0 E0.3565 F800.0
G1 X207.959 Y128.942 Z1.0 E0.3634 F800.0
G1 X207.929 Y128.986 Z1.0 E0.3635 F800.0
G1 X207.854 Y129.09 Z1.0 E0.3636 F800.0
G1 X207.76 Y129.212 Z1.0 E0.3638 F800.0
G1 X203.281 Y134.563 Z1.0 E0.371 F800.0
G1 X202.754 Y135.009 Z1.0 E0.3718 F800.0
G1 X201.999 Y135.45 Z1.0 E0.3727 F800.0
G1 X201.337 Y135.695 Z1.0 E0.3734 F800.0
G1 X195.507 Y136.741 Z1.0 E0.3796 F800.0
G1 X195.343 Y136.763 Z1.0 E0.3798 F800.0
G1 X195.135 Y136.783 Z1.0 E0.38 F800.0
G1 X194.965 Y136.792 Z1.0 E0.3802 F800.0
G1 X189.323 Y136.849 Z1.0 E0.3861 F800.0
G1 X183.818 Y136.889 Z1.0 E0.3918 F800.0
G1 X178.447 Y136.993 Z1.0 E0.3974 F800.0
G1 X172.902 Y137.211 Z1.0 E0.4032 F800.0
G1 X172.698 Y137.209 Z1.0 E0.4034 F800.0
G1 X172.455 Y137.193 Z1.0 E0.4037 F800.0
G1 X172.269 Y137.173 Z1.0 E0.4039 F800.0
G1 X166.781 Y136.31 Z1.0 E0.4097 F800.0
G1 X165.943 Y135.976 Z1.0 E0.4106 F800.0
G1 X165.012 Y135.332 Z1.0 E0.4118 F800.0
G1 X164.402 Y134.664 Z1.0 E0.4127 F800.0
G1 X161.485 Y129.516 Z1.0 E0.4189 F800.0
G1 X161.401 Y129.351 Z1.0 E0.4191 F800.0
G1 X161.311 Y129.15 Z1.0 E0.4193 F800.0
G1 X161.249 Y128.995 Z1.0 E0.4195 F800.0
G1 X159.251 Y123.334 Z1.0 E0.4258 F800.0
G1 X157.306 Y117.805 Z1.0 E0.4319 F800.0
G1 X155.221 Y111.885 Z1.0 E0.4385 F800.0
G1 X153.3 Y106.39 Z1.0 E0.4445 F800.0
G1 X153.273 Y106.31 Z1.0 E0.4446 F800.0
G1 X151.283 Y99.962 Z1.0 E0.4516 F800.0
G1 X151.191 Y99.36 Z1.0 E0.4522 F800.0
G1 X151.191 Y98.598 Z1.0 E0.453 F800.0
G1 X151.283 Y97.996 Z1.0 E0.4536 F800.0
G1 X153.273 Y91.649 Z1.0 E0.4606 F800.0
G1 X153.308 Y91.545 Z1.0 E0.4607 F800.0
G1 X153.312 Y91.535 Z1.0 E0.4607 F800.0
G1 X155.22 Y86.08 Z1.0 E0.4667 F800.0
G1 X157.307 Y80.151 Z1.0 E0.4733 F800.0
G1 X159.25 Y74.626 Z1.0 E0.4794 F800.0
G1 X161.249 Y68.964 Z1.0 E0.4857 F800.0
G1 X161.311 Y68.809 Z1.0 E0.4859 F800.0
G1 X161.401 Y68.608 Z1.0 E0.4861 F800.0
G1 X161.485 Y68.443 Z1.0 E0.4863 F800.0
G1 X164.4 Y63.297 Z1.0 E0.4925 F800.0
G1 X165.004 Y62.634 Z1.0 E0.4934 F800.0
G1 X165.933 Y61.986 Z1.0 E0.4946 F800.0
G1 X166.777 Y61.647 Z1.0 E0.4955 F800.0
G1 X172.27 Y60.785 Z1.0 E0.5013 F800.0
G1 X172.455 Y60.765 Z1.0 E0.5015 F800.0
G1 X172.698 Y60.749 Z1.0 E0.5018 F800.0
G1 X172.902 Y60.747 Z1.0 E0.502 F800.0
G1 X178.45 Y60.966 Z1.0 E0.5078 F800.0
G1 X183.818 Y61.07 Z1.0 E0.5134 F800.0
G1 X189.321 Y61.11 Z1.0 E0.5191 F800.0
G1 X194.988 Y61.166 Z1.0 E0.5251 F800.0
G1 X195.205 Y61.18 Z1.0 E0.5253 F800.0
G1 X195.413 Y61.205 Z1.0 E0.5255 F800.0
G1 X195.53 Y61.222 Z1.0 E0.5256 F800.0
G1 X201.336 Y62.263 Z1.0 E0.5318 F800.0
G1 X202.754 Y62.95 Z1.0 E0.5334 F800.0
G1 X200.108 Y66.616 Z1.0 E0.5381 F800.0
G1 X194.814 Y65.666 Z1.0 E0.5438 F800.0
G1 X189.288 Y65.61 Z1.0 E0.5495 F800.0
G1 X183.779 Y65.57 Z1.0 E0.5553 F800.0
G1 X178.294 Y65.464 Z1.0 E0.561 F800.0
G1 X172.851 Y65.25 Z1.0 E0.5667 F800.0
G1 X168.038 Y66.006 Z1.0 E0.5718 F800.0
G1 X165.457 Y70.561 Z1.0 E0.5773 F800.0
G1 X163.496 Y76.121 Z1.0 E0.5834 F800.0
G1 X161.552 Y81.647 Z1.0 E0.5895 F800.0
G1 X159.58 Y87.249 Z1.0 E0.5957 F800.0
G1 X157.55 Y93.052 Z1.0 E0.6021 F800.0
G1 X155.691 Y98.98 Z1.0 E0.6086 F800.0
G1 X157.55 Y104.908 Z1.0 E0.6151 F800.0
G1 X159.58 Y110.711 Z1.0 E0.6215 F800.0
G1 X161.552 Y116.313 Z1.0 E0.6277 F800.0
G1 X163.496 Y121.839 Z1.0 E0.6339 F800.0
G1 X165.457 Y127.398 Z1.0 E0.64 F800.0
G1 X168.038 Y131.954 Z1.0 E0.6455 F800.0
G1 X172.851 Y132.709 Z1.0 E0.6506 F800.0
G1 X178.294 Y132.495 Z1.0 E0.6562 F800.0
G1 X183.779 Y132.389 Z1.0 E0.662 F800.0
G1 X189.288 Y132.349 Z1.0 E0.6677 F800.0
G1 X194.814 Y132.294 Z1.0 E0.6735 F800.0
G1 X200.108 Y131.344 Z1.0 E0.6791 F800.0
G1 X204.252 Y126.392 Z1.0 E0.6859 F800.0
G1 X207.934 Y120.939 Z1.0 E0.6927 F800.0
G1 X211.269 Y116.031 Z1.0 E0.6989 F800.0
G1 X214.525 Y111.01 Z1.0 E0.7052 F800.0
G1 X217.98 Y105.239 Z1.0 E0.7122 F800.0
G1 X221.228 Y98.98 Z1.0 E0.7196 F800.0
G1 X217.98 Y92.721 Z1.0 E0.7269 F800.0
G1 X214.525 Y86.949 Z1.0 E0.7339 F800.0
G1 X211.269 Y81.929 Z1.0 E0.7402 F800.0
G1 X207.934 Y77.02 Z1.0 E0.7464 F800.0
G1 X204.252 Y71.567 Z1.0 E0.7533 F800.0
G1 X200.108 Y66.616 Z1.0 E0.76 F800.0
modbus s1 f6 a40002 v333
modbus s1 f6 a40012 v100
; for layernumber2
; layer 2
G92 E0
G1 X200.108 Y66.616 Z1.0 E0 F2000.0
G1 X194.82 Y65.659 Z1.058 E0.0005 F800.0
G1 X189.3 Y65.596 Z1.117 E0.0017 F800.0
G1 X183.797 Y65.547 Z1.176 E0.0034 F800.0
G1 X178.318 Y65.433 Z1.237 E0.0057 F800.0
G1 X172.882 Y65.211 Z1.3 E0.0085 F800.0
G1 X168.074 Y65.96 Z1.362 E0.0116 F800.0
G1 X165.495 Y70.515 Z1.408 E0.0153 F800.0
G1 X163.533 Y76.078 Z1.451 E0.02 F800.0
G1 X161.591 Y81.61 Z1.495 E0.025 F800.0
G1 X159.619 Y87.221 Z1.544 E0.0307 F800.0
G1 X157.591 Y93.036 Z1.6 E0.0371 F800.0
G1 X155.736 Y98.98 Z1.662 E0.0443 F800.0
G1 X157.599 Y104.926 Z1.709 E0.052 F800.0
G1 X159.635 Y110.749 Z1.762 E0.0602 F800.0
G1 X161.616 Y116.374 Z1.825 E0.0687 F800.0
G1 X163.571 Y121.925 Z1.901 E0.078 F800.0
G1 X165.548 Y127.51 Z1.992 E0.0882 F800.0
G1 X168.145 Y132.091 Z2.085 E0.0982 F800.0
G1 X172.967 Y132.858 Z2.141 E0.108 F800.0
G1 X178.416 Y132.651 Z2.186 E0.1193 F800.0
G1 X183.908 Y132.55 Z2.233 E0.1312 F800.0
G1 X189.424 Y132.511 Z2.283 E0.1436 F800.0
G1 X194.957 Y132.452 Z2.338 E0.1566 F800.0
G1 X200.259 Y131.499 Z2.387 E0.1698 F800.0
G1 X204.405 Y126.556 Z2.401 E0.1857 F800.0
G1 X208.097 Y121.099 Z2.418 E0.2022 F800.0
G1 X211.459 Y116.158 Z2.445 E0.2174 F800.0
G1 X214.743 Y111.089 Z2.472 E0.233 F800.0
G1 X218.216 Y105.276 Z2.501 E0.2509 F800.0
G1 X221.474 Y98.98 Z2.541 E0.2702 F800.0
G1 X218.232 Y92.681 Z2.604 E0.2902 F800.0
G1 X214.774 Y86.86 Z2.682 E0.3102 F800.0
G1 X211.501 Y81.774 Z2.766 E0.3291 F800.0
G1 X208.148 Y76.811 Z2.854 E0.3486 F800.0
G1 X204.466 Y71.338 Z2.961 E0.3714 F800.0
G1 X200.334 Y66.383 Z3.081 E0.3951 F800.0
modbus s1 f6 a40002 v500
modbus s1 f6 a40012 v666
; for layernumber3
; layer 3
G92 E0
G1 X200.334 Y66.383 Z3.081 E0 F2000.0
G1 X195.045 Y65.411 Z3.152 E0.0198 F800.0
G1 X189.522 Y65.331 Z3.216 E0.0402 F800.0
G1 X184.018 Y65.272 Z3.29 E0.0606 F800.0
G1 X178.538 Y65.152 Z3.372 E0.0812 F800.0
G1 X173.101 Y64.929 Z3.462 E0.1018 F800.0
G1 X168.288 Y65.686 Z3.531 E0.1204 F800.0
G1 X165.687 Y70.278 Z3.508 E0.1397 F800.0
G1 X163.703 Y75.884 Z3.479 E0.1607 F800.0
G1 X161.744 Y81.463 Z3.476 E0.1811 F800.0
G1 X159.761 Y87.122 Z3.503 E0.2016 F800.0
G1 X157.727 Y92.986 Z3.562 E0.2228 F800.0
G1 X155.869 Y98.98 Z3.646 E0.2446 F800.0
G1 X157.735 Y104.977 Z3.671 E0.266 F800.0
G1 X159.777 Y110.849 Z3.721 E0.2872 F800.0
G1 X161.769 Y116.521 Z3.807 E0.308 F800.0
G1 X163.741 Y122.118 Z3.93 E0.3289 F800.0
G1 X165.74 Y127.748 Z4.092 E0.3507 F800.0
G1 X168.359 Y132.364 Z4.254 E0.3708 F800.0
G1 X173.187 Y133.141 Z4.302 E0.3893 F800.0
G1 X178.636 Y132.933 Z4.321 E0.4098 F800.0
G1 X184.128 Y132.826 Z4.347 E0.4301 F800.0
G1 X189.645 Y132.776 Z4.382 E0.4504 F800.0
G1 X195.182 Y132.7 Z4.431 E0.4708 F800.0
G1 X200.484 Y131.731 Z4.468 E0.4905 F800.0
G1 X204.625 Y126.791 Z4.418 E0.5134 F800.0
G1 X208.324 Y121.321 Z4.381 E0.5363 F800.0
G1 X211.711 Y116.326 Z4.371 E0.5567 F800.0
G1 X215.024 Y111.19 Z4.364 E0.5771 F800.0
G1 X218.509 Y105.323 Z4.364 E0.5995 F800.0
G1 X221.77 Y98.98 Z4.39 E0.6227 F800.0
G1 X218.525 Y92.634 Z4.467 E0.6461 F800.0
G1 X215.055 Y86.758 Z4.575 E0.6688 F800.0
G1 X211.754 Y81.605 Z4.692 E0.6896 F800.0
G1 X208.374 Y76.59 Z4.817 E0.7105 F800.0
G1 X204.686 Y71.103 Z4.978 E0.734 F800.0
G1 X200.559 Y66.151 Z5.162 E0.7576 F800.0
modbus s1 f6 a40002 v600
modbus s1 f6 a40012 v432
; for layernumber4
; layer 4
G92 E0
G1 X200.559 Y66.151 Z5.162 E0 F2000.0
G1 X195.269 Y65.163 Z5.245 E0.0198 F800.0
G1 X189.744 Y65.066 Z5.315 E0.0402 F800.0
G1 X184.238 Y64.996 Z5.403 E0.0606 F800.0
G1 X178.758 Y64.871 Z5.507 E0.0812 F800.0
G1 X173.321 Y64.646 Z5.623 E0.1019 F800.0
G1 X168.502 Y65.413 Z5.7 E0.1205 F800.0
G1 X165.879 Y70.041 Z5.608 E0.1399 F800.0
G1 X163.873 Y75.691 Z5.507 E0.1611 F800.0
G1 X161.897 Y81.315 Z5.458 E0.1816 F800.0
G1 X159.903 Y87.023 Z5.462 E0.2023 F800.0
G1 X157.863 Y92.935 Z5.524 E0.2237 F800.0
G1 X156.003 Y98.98 Z5.631 E0.2456 F800.0
G1 X157.871 Y105.027 Z5.633 E0.2672 F800.0
G1 X159.919 Y110.948 Z5.68 E0.2886 F800.0
G1 X161.923 Y116.669 Z5.788 E0.3094 F800.0
G1 X163.911 Y122.312 Z5.958 E0.3305 F800.0
G1 X165.933 Y127.985 Z6.192 E0.3524 F800.0
G1 X168.574 Y132.638 Z6.423 E0.3728 F800.0
G1 X173.406 Y133.423 Z6.463 E0.3913 F800.0
G1 X178.855 Y133.214 Z6.456 E0.4118 F800.0
G1 X184.348 Y133.102 Z6.46 E0.4321 F800.0
G1 X189.867 Y133.041 Z6.482 E0.4524 F800.0
G1 X195.406 Y132.948 Z6.525 E0.4728 F800.0
G1 X200.709 Y131.964 Z6.549 E0.4926 F800.0
G1 X204.845 Y127.027 Z6.434 E0.5154 F800.0
G1 X208.55 Y121.542 Z6.344 E0.5383 F800.0
G1 X211.964 Y116.495 Z6.297 E0.559 F800.0
G1 X215.305 Y111.291 Z6.257 E0.5796 F800.0
G1 X218.802 Y105.37 Z6.227 E0.6022 F800.0
G1 X222.066 Y98.98 Z6.239 E0.6255 F800.0
G1 X218.818 Y92.587 Z6.33 E0.6491 F800.0
G1 X215.336 Y86.657 Z6.467 E0.672 F800.0
G1 X212.006 Y81.436 Z6.618 E0.693 F800.0
G1 X208.6 Y76.368 Z6.78 E0.7141 F800.0
G1 X204.906 Y70.867 Z6.995 E0.7376 F800.0
G1 X200.785 Y65.918 Z7.243 E0.7613 F800.0
modbus s1 f6 a40002 v412
modbus s1 f6 a40012 v895
; for layernumber5
; layer 5
G92 E0
G1 X200.785 Y65.918 Z7.243 E0 F2000.0
G1 X195.493 Y64.915 Z7.339 E0.0198 F800.0
G1 X189.965 Y64.801 Z7.415 E0.0402 F800.0
G1 X184.458 Y64.72 Z7.517 E0.0607 F800.0
G1 X178.978 Y64.59 Z7.643 E0.0813 F800.0
G1 X173.54 Y64.364 Z7.784 E0.102 F800.0
G1 X168.716 Y65.139 Z7.869 E0.1206 F800.0
G1 X166.071 Y69.803 Z7.708 E0.1401 F800.0
G1 X164.043 Y75.497 Z7.536 E0.1614 F800.0
G1 X162.05 Y81.168 Z7.439 E0.1822 F800.0
G1 X160.045 Y86.924 Z7.421 E0.203 F800.0
G1 X157.999 Y92.885 Z7.486 E0.2245 F800.0
G1 X156.136 Y98.98 Z7.616 E0.2466 F800.0
G1 X158.007 Y105.077 Z7.595 E0.2684 F800.0
G1 X160.061 Y111.047 Z7.639 E0.2899 F800.0
G1 X162.076 Y116.816 Z7.769 E0.3109 F800.0
G1 X164.081 Y122.506 Z7.986 E0.3322 F800.0
G1 X166.125 Y128.222 Z8.292 E0.3542 F800.0
G1 X168.788 Y132.912 Z8.592 E0.3747 F800.0
G1 X173.625 Y133.705 Z8.625 E0.3933 F800.0
G1 X179.075 Y133.495 Z8.592 E0.4138 F800.0
G1 X184.569 Y133.378 Z8.574 E0.4341 F800.0
G1 X190.089 Y133.306 Z8.581 E0.4544 F800.0
G1 X195.63 Y133.196 Z8.618 E0.4748 F800.0
G1 X200.935 Y132.196 Z8.63 E0.4946 F800.0
G1 X205.065 Y127.262 Z8.451 E0.5175 F800.0
G1 X208.776 Y121.764 Z8.307 E0.5404 F800.0
G1 X212.217 Y116.664 Z8.223 E0.5613 F800.0
G1 X215.585 Y111.392 Z8.149 E0.5821 F800.0
G1 X219.095 Y105.416 Z8.09 E0.6048 F800.0
G1 X222.362 Y98.98 Z8.088 E0.6284 F800.0
G1 X219.111 Y92.541 Z8.194 E0.652 F800.0
G1 X215.616 Y86.556 Z8.36 E0.6751 F800.0
G1 X212.259 Y81.268 Z8.544 E0.6964 F800.0
G1 X208.827 Y76.147 Z8.744 E0.7177 F800.0
G1 X205.126 Y70.632 Z9.012 E0.7413 F800.0
G1 X201.01 Y65.686 Z9.324 E0.7649 F800.0
; layer 6
G92 E0
G1 X201.01 Y65.686 Z9.324 E0 F2000.0
G1 X195.717 Y64.667 Z9.432 E0.0198 F800.0
G1 X190.187 Y64.536 Z9.514 E0.0402 F800.0
G1 X184.679 Y64.444 Z9.631 E0.0607 F800.0
G1 X179.197 Y64.308 Z9.778 E0.0813 F800.0
G1 X173.759 Y64.082 Z9.946 E0.102 F800.0
G1 X168.931 Y64.865 Z10.038 E0.1206 F800.0
G1 X166.264 Y69.566 Z9.808 E0.1403 F800.0
G1 X164.213 Y75.303 Z9.564 E0.1618 F800.0
G1 X162.203 Y81.021 Z9.42 E0.1827 F800.0
G1 X160.187 Y86.825 Z9.38 E0.2036 F800.0
G1 X158.135 Y92.835 Z9.448 E0.2254 F800.0
G1 X156.27 Y98.98 Z9.601 E0.2476 F800.0
G1 X158.143 Y105.128 Z9.557 E0.2696 F800.0
G1 X160.203 Y111.146 Z9.598 E0.2913 F800.0
G1 X162.229 Y116.963 Z9.75 E0.3124 F800.0
G1 X164.251 Y122.699 Z10.014 E0.3338 F800.0
G1 X166.317 Y128.46 Z10.392 E0.356 F800.0
G1 X169.002 Y133.186 Z10.761 E0.3767 F800.0
G1 X173.845 Y133.988 Z10.786 E0.3953 F800.0
G1 X179.295 Y133.776 Z10.727 E0.4157 F800.0
G1 X184.789 Y133.653 Z10.687 E0.4361 F800.0
G1 X190.31 Y133.571 Z10.68 E0.4565 F800.0
G1 X195.854 Y133.445 Z10.712 E0.4768 F800.0
G1 X201.16 Y132.429 Z10.711 E0.4966 F800.0
G1 X205.285 Y127.498 Z10.468 E0.5195 F800.0
G1 X209.003 Y121.985 Z10.271 E0.5425 F800.0
G1 X212.469 Y116.832 Z10.149 E0.5635 F800.0
G1 X215.866 Y111.493 Z10.042 E0.5846 F800.0
G1 X219.395 Y105.463 Z9.952 E0.6075 F800.0
G1 X222.675 Y98.98 Z9.934 E0.6312 F800.0
G1 X219.411 Y92.493 Z10.055 E0.655 F800.0
G1 X215.897 Y86.455 Z10.252 E0.6783 F800.0
G1 X212.511 Y81.099 Z10.47 E0.6998 F800.0
G1 X209.053 Y75.925 Z10.707 E0.7213 F800.0
G1 X205.346 Y70.396 Z11.028 E0.745 F800.0
G1 X201.235 Y65.453 Z11.405 E0.7686 F800.0
; layer 7
G92 E0
G1 X201.235 Y65.453 Z11.405 E0 F2000.0
G1 X195.941 Y64.417 Z11.526 E0.0199 F800.0
G1 X190.409 Y64.269 Z11.613 E0.0403 F800.0
G1 X184.898 Y64.165 Z11.744 E0.0608 F800.0
G1 X179.415 Y64.023 Z11.912 E0.0814 F800.0
G1 X173.976 Y63.793 Z12.106 E0.1021 F800.0
G1 X169.14 Y64.584 Z12.206 E0.1208 F800.0
G1 X166.45 Y69.323 Z11.908 E0.1406 F800.0
G1 X164.376 Y75.107 Z11.592 E0.1622 F800.0
G1 X162.348 Y80.872 Z11.401 E0.1832 F800.0
G1 X160.318 Y86.724 Z11.34 E0.2044 F800.0
G1 X158.255 Y92.783 Z11.41 E0.2263 F800.0
G1 X156.379 Y98.98 Z11.586 E0.2487 F800.0
G1 X158.259 Y105.179 Z11.519 E0.2708 F800.0
G1 X160.329 Y111.247 Z11.558 E0.2927 F800.0
G1 X162.368 Y117.113 Z11.732 E0.314 F800.0
G1 X164.407 Y122.899 Z12.043 E0.3355 F800.0
G1 X166.495 Y128.71 Z12.491 E0.3579 F800.0
G1 X169.201 Y133.483 Z12.928 E0.3787 F800.0
G1 X174.052 Y134.295 Z12.945 E0.3974 F800.0
G1 X179.507 Y134.081 Z12.859 E0.4179 F800.0
G1 X185.005 Y133.952 Z12.798 E0.4383 F800.0
G1 X190.53 Y133.859 Z12.776 E0.4587 F800.0
G1 X196.08 Y133.72 Z12.801 E0.4791 F800.0
G1 X201.392 Y132.692 Z12.787 E0.4989 F800.0
G1 X205.52 Y127.758 Z12.48 E0.5217 F800.0
G1 X209.254 Y122.224 Z12.228 E0.5448 F800.0
G1 X212.756 Y117.014 Z12.068 E0.5661 F800.0
G1 X216.188 Y111.604 Z11.927 E0.5875 F800.0
G1 X219.73 Y105.515 Z11.807 E0.6106 F800.0
G1 X223.01 Y98.98 Z11.776 E0.6344 F800.0
G1 X219.749 Y92.442 Z11.91 E0.6584 F800.0
G1 X216.225 Y86.343 Z12.136 E0.6819 F800.0
G1 X212.806 Y80.914 Z12.388 E0.7036 F800.0
G1 X209.312 Y75.681 Z12.663 E0.7254 F800.0
G1 X205.587 Y70.127 Z13.038 E0.7491 F800.0
G1 X201.47 Y65.175 Z13.479 E0.7727 F800.0
; layer 8
G92 E0
G1 X201.47 Y65.175 Z13.479 E0 F2000.0
G1 X196.168 Y64.126 Z13.613 E0.0199 F800.0
G1 X190.628 Y63.964 Z13.707 E0.0404 F800.0
G1 X185.111 Y63.848 Z13.852 E0.0609 F800.0
G1 X179.621 Y63.696 Z14.042 E0.0815 F800.0
G1 X174.172 Y63.46 Z14.262 E0.1023 F800.0
G1 X169.323 Y64.261 Z14.371 E0.121 F800.0
G1 X166.61 Y69.055 Z14.007 E0.141 F800.0
G1 X164.512 Y74.897 Z13.621 E0.1628 F800.0
G1 X162.461 Y80.715 Z13.384 E0.1841 F800.0
G1 X160.41 Y86.619 Z13.301 E0.2054 F800.0
G1 X158.326 Y92.729 Z13.375 E0.2275 F800.0
G1 X156.43 Y98.98 Z13.574 E0.2501 F800.0
G1 X158.329 Y105.233 Z13.485 E0.2724 F800.0
G1 X160.417 Y111.353 Z13.519 E0.2945 F800.0
G1 X162.476 Y117.271 Z13.715 E0.316 F800.0
G1 X164.538 Y123.111 Z14.072 E0.3376 F800.0
G1 X166.651 Y128.982 Z14.59 E0.3602 F800.0
G1 X169.382 Y133.809 Z15.093 E0.3813 F800.0
G1 X174.246 Y134.635 Z15.1 E0.4001 F800.0
G1 X179.709 Y134.419 Z14.988 E0.4206 F800.0
G1 X185.214 Y134.284 Z14.905 E0.4411 F800.0
G1 X190.748 Y134.182 Z14.868 E0.4615 F800.0
G1 X196.307 Y134.031 Z14.886 E0.4819 F800.0
G1 X201.631 Y132.991 Z14.858 E0.5018 F800.0
G1 X205.771 Y128.043 Z14.487 E0.5247 F800.0
G1 X209.528 Y122.478 Z14.181 E0.5479 F800.0
G1 X213.064 Y117.204 Z13.984 E0.5694 F800.0
G1 X216.525 Y111.717 Z13.81 E0.5911 F800.0
G1 X220.075 Y105.567 Z13.662 E0.6144 F800.0
G1 X223.349 Y98.98 Z13.618 E0.6383 F800.0
G1 X220.094 Y92.389 Z13.765 E0.6624 F800.0
G1 X216.563 Y86.229 Z14.019 E0.6861 F800.0
G1 X213.116 Y80.724 Z14.304 E0.7082 F800.0
G1 X209.59 Y75.424 Z14.615 E0.7302 F800.0
G1 X205.842 Y69.835 Z15.044 E0.754 F800.0
G1 X201.711 Y64.865 Z15.548 E0.7778 F800.0
; layer 9
G92 E0
G1 X201.711 Y64.865 Z15.548 E0 F2000.0
G1 X196.396 Y63.802 Z15.696 E0.02 F800.0
G1 X190.845 Y63.628 Z15.796 E0.0405 F800.0
G1 X185.318 Y63.503 Z15.957 E0.0611 F800.0
G1 X179.818 Y63.346 Z16.169 E0.0818 F800.0
G1 X174.362 Y63.111 Z16.417 E0.1026 F800.0
G1 X169.5 Y63.928 Z16.536 E0.1214 F800.0
G1 X166.758 Y68.777 Z16.106 E0.1415 F800.0
G1 X164.63 Y74.679 Z15.651 E0.1635 F800.0
G1 X162.551 Y80.553 Z15.368 E0.185 F800.0
G1 X160.476 Y86.511 Z15.264 E0.2065 F800.0
G1 X158.373 Y92.674 Z15.341 E0.2288 F800.0
G1 X156.462 Y98.98 Z15.563 E0.2516 F800.0
G1 X158.376 Y105.288 Z15.451 E0.2742 F800.0
G1 X160.483 Y111.461 Z15.482 E0.2964 F800.0
G1 X162.566 Y117.433 Z15.699 E0.3181 F800.0
G1 X164.656 Y123.329 Z16.102 E0.3399 F800.0
G1 X166.8 Y129.26 Z16.689 E0.3627 F800.0
G1 X169.559 Y134.142 Z17.257 E0.3841 F800.0
G1 X174.435 Y134.984 Z17.255 E0.4029 F800.0
G1 X179.906 Y134.769 Z17.115 E0.4235 F800.0
G1 X185.421 Y134.629 Z17.009 E0.444 F800.0
G1 X190.965 Y134.518 Z16.957 E0.4644 F800.0
G1 X196.536 Y134.355 Z16.968 E0.4849 F800.0
G1 X201.872 Y133.301 Z16.927 E0.5049 F800.0
G1 X206.026 Y128.336 Z16.492 E0.5278 F800.0
G1 X209.806 Y122.736 Z16.134 E0.5512 F800.0
G1 X213.375 Y117.395 Z15.9 E0.573 F800.0
G1 X216.863 Y111.832 Z15.692 E0.5949 F800.0
G1 X220.419 Y105.62 Z15.516 E0.6184 F800.0
G1 X223.689 Y98.98 Z15.459 E0.6425 F800.0
G1 X220.438 Y92.337 Z15.619 E0.6667 F800.0
G1 X216.901 Y86.115 Z15.901 E0.6906 F800.0
G1 X213.427 Y80.533 Z16.219 E0.7129 F800.0
G1 X209.868 Y75.166 Z16.567 E0.7352 F800.0
G1 X206.097 Y69.542 Z17.049 E0.7591 F800.0
G1 X201.952 Y64.555 Z17.617 E0.783 F800.0
; layer 10
G92 E0
G1 X201.952 Y64.555 Z17.617 E0 F2000.0
G1 X196.625 Y63.479 Z17.778 E0.02 F800.0
G1 X191.062 Y63.292 Z17.886 E0.0406 F800.0
G1 X185.524 Y63.158 Z18.062 E0.0612 F800.0
G1 X180.016 Y62.996 Z18.296 E0.082 F800.0
G1 X174.551 Y62.763 Z18.571 E0.1028 F800.0
G1 X169.677 Y63.596 Z18.7 E0.1217 F800.0
G1 X166.907 Y68.499 Z18.204 E0.142 F800.0
G1 X164.748 Y74.461 Z17.68 E0.1642 F800.0
G1 X162.641 Y80.391 Z17.352 E0.1859 F800.0
G1 X160.542 Y86.402 Z17.226 E0.2076 F800.0
G1 X158.42 Y92.619 Z17.307 E0.2301 F800.0
G1 X156.494 Y98.98 Z17.552 E0.2531 F800.0
G1 X158.422 Y105.343 Z17.417 E0.2759 F800.0
G1 X160.549 Y111.569 Z17.445 E0.2983 F800.0
G1 X162.656 Y117.595 Z17.682 E0.3201 F800.0
G1 X164.774 Y123.547 Z18.131 E0.3422 F800.0
G1 X166.948 Y129.538 Z18.787 E0.3651 F800.0
G1 X169.737 Y134.475 Z19.421 E0.3868 F800.0
G1 X174.625 Y135.332 Z19.409 E0.4057 F800.0
G1 X180.104 Y135.119 Z19.242 E0.4263 F800.0
G1 X185.628 Y134.975 Z19.114 E0.4468 F800.0
G1 X191.182 Y134.854 Z19.047 E0.4673 F800.0
G1 X196.764 Y134.679 Z19.051 E0.4878 F800.0
G1 X202.113 Y133.611 Z18.996 E0.5078 F800.0
G1 X206.282 Y128.629 Z18.497 E0.5309 F800.0
G1 X210.084 Y122.994 Z18.086 E0.5544 F800.0
G1 X213.686 Y117.586 Z17.815 E0.5764 F800.0
G1 X217.201 Y111.946 Z17.574 E0.5986 F800.0
G1 X220.763 Y105.672 Z17.37 E0.6223 F800.0
G1 X224.028 Y98.98 Z17.301 E0.6465 F800.0
G1 X220.782 Y92.284 Z17.473 E0.6709 F800.0
G1 X217.238 Y86.001 Z17.783 E0.695 F800.0
G1 X213.738 Y80.342 Z18.134 E0.7176 F800.0
G1 X210.146 Y74.909 Z18.519 E0.7401 F800.0
G1 X206.353 Y69.25 Z19.054 E0.7642 F800.0
G1 X202.194 Y64.246 Z19.686 E0.7881 F800.0
; layer 11
G92 E0
G1 X202.194 Y64.246 Z19.686 E0 F2000.0
G1 X196.853 Y63.155 Z19.861 E0.0201 F800.0
G1 X191.279 Y62.956 Z19.976 E0.0407 F800.0
G1 X185.731 Y62.812 Z20.167 E0.0614 F800.0
G1 X180.214 Y62.646 Z20.423 E0.0821 F800.0
G1 X174.741 Y62.415 Z20.726 E0.1031 F800.0
G1 X169.855 Y63.263 Z20.864 E0.122 F800.0
G1 X167.056 Y68.221 Z20.303 E0.1425 F800.0
G1 X164.866 Y74.243 Z19.71 E0.1649 F800.0
G1 X162.731 Y80.229 Z19.336 E0.1868 F800.0
G1 X160.607 Y86.294 Z19.189 E0.2087 F800.0
G1 X158.467 Y92.564 Z19.273 E0.2314 F800.0
G1 X156.526 Y98.98 Z19.541 E0.2546 F800.0
G1 X158.469 Y105.399 Z19.383 E0.2775 F800.0
G1 X160.615 Y111.678 Z19.407 E0.3001 F800.0
G1 X162.746 Y117.757 Z19.666 E0.3222 F800.0
G1 X164.892 Y123.765 Z20.161 E0.3444 F800.0
G1 X167.097 Y129.816 Z20.886 E0.3675 F800.0
G1 X169.914 Y134.807 Z21.585 E0.3895 F800.0
G1 X174.815 Y135.681 Z21.564 E0.4084 F800.0
G1 X180.302 Y135.469 Z21.369 E0.4291 F800.0
G1 X185.835 Y135.32 Z21.219 E0.4497 F800.0
G1 X191.399 Y135.19 Z21.137 E0.4702 F800.0
G1 X196.993 Y135.002 Z21.134 E0.4908 F800.0
G1 X202.354 Y133.92 Z21.065 E0.5108 F800.0
G1 X206.537 Y128.921 Z20.502 E0.5339 F800.0
G1 X210.362 Y123.251 Z20.038 E0.5576 F800.0
G1 X213.997 Y117.777 Z19.73 E0.5799 F800.0
G1 X217.539 Y112.06 Z19.457 E0.6023 F800.0
G1 X221.118 Y105.727 Z19.222 E0.6262 F800.0
G1 X224.41 Y98.98 Z19.134 E0.6506 F800.0
G1 X221.138 Y92.23 Z19.324 E0.6752 F800.0
G1 X217.576 Y85.887 Z19.666 E0.6995 F800.0
G1 X214.049 Y80.151 Z20.05 E0.7224 F800.0
G1 X210.424 Y74.651 Z20.472 E0.7451 F800.0
G1 X206.608 Y68.957 Z21.059 E0.7693 F800.0
G1 X202.435 Y63.936 Z21.755 E0.7934 F800.0
; layer 12
G92 E0
G1 X202.435 Y63.936 Z21.755 E0 F2000.0
G1 X197.082 Y62.831 Z21.944 E0.0202 F800.0
G1 X191.496 Y62.62 Z22.065 E0.0408 F800.0
G1 X185.938 Y62.467 Z22.271 E0.0615 F800.0
G1 X180.411 Y62.294 Z22.55 E0.0823 F800.0
G1 X174.928 Y62.06 Z22.88 E0.1033 F800.0
G1 X170.026 Y62.922 Z23.027 E0.1223 F800.0
G1 X167.2 Y67.938 Z22.401 E0.143 F800.0
G1 X164.982 Y74.024 Z21.739 E0.1656 F800.0
G1 X162.82 Y80.067 Z21.319 E0.1877 F800.0
G1 X160.67 Y86.185 Z21.152 E0.2098 F800.0
G1 X158.499 Y92.508 Z21.239 E0.2327 F800.0
G1 X156.523 Y98.98 Z21.529 E0.2561 F800.0
G1 X158.499 Y105.455 Z21.348 E0.2793 F800.0
G1 X160.676 Y111.787 Z21.37 E0.3021 F800.0
G1 X162.835 Y117.92 Z21.65 E0.3243 F800.0
G1 X165.006 Y123.986 Z22.19 E0.3467 F800.0
G1 X167.234 Y130.106 Z22.983 E0.37 F800.0
G1 X170.074 Y135.166 Z23.746 E0.3923 F800.0
G1 X174.994 Y136.05 Z23.715 E0.4113 F800.0
G1 X180.496 Y135.829 Z23.494 E0.432 F800.0
G1 X186.041 Y135.667 Z23.323 E0.4527 F800.0
G1 X191.616 Y135.526 Z23.226 E0.4732 F800.0
G1 X197.222 Y135.332 Z23.215 E0.4939 F800.0
G1 X202.599 Y134.246 Z23.131 E0.514 F800.0
G1 X206.799 Y129.225 Z22.505 E0.5372 F800.0
G1 X210.655 Y123.52 Z21.986 E0.561 F800.0
G1 X214.339 Y117.981 Z21.638 E0.5835 F800.0
G1 X217.929 Y112.188 Z21.327 E0.6063 F800.0
G1 X221.532 Y105.79 Z21.061 E0.6304 F800.0
G1 X224.819 Y98.98 Z20.961 E0.655 F800.0
G1 X221.556 Y92.166 Z21.163 E0.6798 F800.0
G1 X217.974 Y85.756 Z21.535 E0.7043 F800.0
G1 X214.398 Y79.943 Z21.956 E0.7274 F800.0
G1 X210.722 Y74.378 Z22.418 E0.7504 F800.0
G1 X206.873 Y68.649 Z23.061 E0.7748 F800.0
G1 X202.681 Y63.602 Z23.819 E0.799 F800.0
; layer 13
G92 E0
G1 X202.681 Y63.602 Z23.819 E0 F2000.0
G1 X197.311 Y62.495 Z24.024 E0.0202 F800.0
G1 X191.712 Y62.277 Z24.154 E0.0409 F800.0
G1 X186.142 Y62.109 Z24.374 E0.0617 F800.0
G1 X180.599 Y61.915 Z24.673 E0.0826 F800.0
G1 X175.093 Y61.661 Z25.026 E0.1036 F800.0
G1 X170.164 Y62.528 Z25.183 E0.1227 F800.0
G1 X167.313 Y67.624 Z24.496 E0.1437 F800.0
G1 X165.071 Y73.789 Z23.767 E0.1666 F800.0
G1 X162.879 Y79.895 Z23.303 E0.1888 F800.0
G1 X160.687 Y86.068 Z23.114 E0.2112 F800.0
G1 X158.461 Y92.447 Z23.203 E0.2343 F800.0
G1 X156.417 Y98.98 Z23.513 E0.258 F800.0
G1 X158.454 Y105.517 Z23.312 E0.2814 F800.0
G1 X160.678 Y111.906 Z23.331 E0.3044 F800.0
G1 X162.874 Y118.098 Z23.633 E0.3268 F800.0
G1 X165.076 Y124.231 Z24.218 E0.3494 F800.0
G1 X167.332 Y130.435 Z25.077 E0.373 F800.0
G1 X170.2 Y135.578 Z25.899 E0.3956 F800.0
G1 X175.146 Y136.479 Z25.857 E0.4148 F800.0
G1 X180.669 Y136.253 Z25.609 E0.4356 F800.0
G1 X186.233 Y136.084 Z25.416 E0.4563 F800.0
G1 X191.828 Y135.938 Z25.302 E0.4769 F800.0
G1 X197.455 Y135.744 Z25.281 E0.4976 F800.0
G1 X202.86 Y134.654 Z25.18 E0.5178 F800.0
G1 X207.099 Y129.592 Z24.491 E0.5412 F800.0
G1 X211.0 Y123.829 Z23.919 E0.5652 F800.0
G1 X214.731 Y118.208 Z23.535 E0.5881 F800.0
G1 X218.353 Y112.327 Z23.19 E0.6112 F800.0
G1 X221.959 Y105.855 Z22.897 E0.6355 F800.0
G1 X225.231 Y98.98 Z22.788 E0.6603 F800.0
G1 X221.983 Y92.101 Z22.999 E0.6853 F800.0
G1 X218.4 Y85.617 Z23.397 E0.71 F800.0
G1 X214.799 Y79.713 Z23.85 E0.7335 F800.0
G1 X211.081 Y74.059 Z24.348 E0.7568 F800.0
G1 X207.187 Y68.259 Z25.041 E0.7814 F800.0
G1 X202.949 Y63.157 Z25.86 E0.8059 F800.0
; layer 14
G92 E0
G1 X202.949 Y63.157 Z25.86 E0 F2000.0
G1 X197.547 Y62.039 Z26.081 E0.0204 F800.0
G1 X191.92 Y61.818 Z26.221 E0.0412 F800.0
G1 X186.324 Y61.643 Z26.458 E0.062 F800.0
G1 X180.756 Y61.445 Z26.78 E0.0831 F800.0
G1 X175.228 Y61.196 Z27.163 E0.1042 F800.0
G1 X170.273 Y62.089 Z27.332 E0.1234 F800.0
G1 X167.382 Y67.266 Z26.587 E0.1446 F800.0
G1 X165.094 Y73.517 Z25.794 E0.1678 F800.0
G1 X162.851 Y79.696 Z25.285 E0.1904 F800.0
G1 X160.608 Y85.936 Z25.074 E0.213 F800.0
G1 X158.336 Y92.379 Z25.166 E0.2364 F800.0
G1 X156.25 Y98.98 Z25.496 E0.2604 F800.0
G1 X158.329 Y105.584 Z25.275 E0.2841 F800.0
G1 X160.6 Y112.039 Z25.292 E0.3074 F800.0
G1 X162.846 Y118.296 Z25.616 E0.3301 F800.0
G1 X165.099 Y124.503 Z26.244 E0.3529 F800.0
G1 X167.401 Y130.793 Z27.167 E0.3768 F800.0
G1 X170.31 Y136.017 Z28.049 E0.3998 F800.0
G1 X175.281 Y136.944 Z27.994 E0.4191 F800.0
G1 X180.826 Y136.723 Z27.716 E0.44 F800.0
G1 X186.414 Y136.55 Z27.499 E0.4608 F800.0
G1 X192.035 Y136.397 Z27.369 E0.4816 F800.0
G1 X197.69 Y136.199 Z27.338 E0.5024 F800.0
G1 X203.128 Y135.099 Z27.22 E0.5228 F800.0
G1 X207.414 Y129.984 Z26.47 E0.5464 F800.0
G1 X211.363 Y124.151 Z25.848 E0.5707 F800.0
G1 X215.136 Y118.44 Z25.428 E0.5939 F800.0
G1 X218.782 Y112.467 Z25.052 E0.6173 F800.0
G1 X222.386 Y105.92 Z24.734 E0.6418 F800.0
G1 X225.642 Y98.98 Z24.614 E0.6668 F800.0
G1 X222.41 Y92.036 Z24.836 E0.6919 F800.0
G1 X218.83 Y85.477 Z25.259 E0.7169 F800.0
G1 X215.204 Y79.481 Z25.743 E0.7407 F800.0
G1 X211.444 Y73.737 Z26.276 E0.7643 F800.0
G1 X207.502 Y67.867 Z27.02 E0.7892 F800.0
G1 X203.217 Y62.712 Z27.901 E0.814 F800.0
; layer 15
G92 E0
G1 X203.217 Y62.712 Z27.901 E0 F2000.0
G1 X197.782 Y61.583 Z28.138 E0.0205 F800.0
G1 X192.127 Y61.358 Z28.288 E0.0414 F800.0
G1 X186.505 Y61.177 Z28.541 E0.0624 F800.0
G1 X180.913 Y60.976 Z28.887 E0.0835 F800.0
G1 X175.363 Y60.732 Z29.299 E0.1047 F800.0
G1 X170.382 Y61.65 Z29.482 E0.1241 F800.0
G1 X167.45 Y66.908 Z28.677 E0.1456 F800.0
G1 X165.116 Y73.245 Z27.82 E0.1691 F800.0
G1 X162.823 Y79.498 Z27.268 E0.1919 F800.0
G1 X160.53 Y85.803 Z27.035 E0.2148 F800.0
G1 X158.211 Y92.311 Z27.128 E0.2385 F800.0
G1 X156.083 Y98.98 Z27.478 E0.2627 F800.0
G1 X158.204 Y105.652 Z27.237 E0.2867 F800.0
G1 X160.521 Y112.171 Z27.253 E0.3103 F800.0
G1 X162.819 Y118.495 Z27.598 E0.3332 F800.0
G1 X165.121 Y124.775 Z28.27 E0.3563 F800.0
G1 X167.47 Y131.151 Z29.258 E0.3804 F800.0
G1 X170.419 Y136.456 Z30.199 E0.4039 F800.0
G1 X175.415 Y137.409 Z30.13 E0.4233 F800.0
G1 X180.983 Y137.192 Z29.824 E0.4443 F800.0
G1 X186.596 Y137.016 Z29.583 E0.4652 F800.0
G1 X192.243 Y136.857 Z29.436 E0.486 F800.0
G1 X197.926 Y136.655 Z29.395 E0.507 F800.0
G1 X203.396 Y135.545 Z29.261 E0.5275 F800.0
G1 X207.729 Y130.376 Z28.45 E0.5513 F800.0
G1 X211.726 Y124.472 Z27.776 E0.5759 F800.0
G1 X215.541 Y118.673 Z27.321 E0.5995 F800.0
G1 X219.211 Y112.608 Z26.914 E0.6232 F800.0
G1 X222.813 Y105.986 Z26.57 E0.6479 F800.0
G1 X226.054 Y98.98 Z26.441 E0.6731 F800.0
G1 X222.837 Y91.97 Z26.672 E0.6984 F800.0
G1 X219.259 Y85.336 Z27.121 E0.7235 F800.0
G1 X215.609 Y79.248 Z27.636 E0.7477 F800.0
G1 X211.807 Y73.416 Z28.205 E0.7716 F800.0
G1 X207.817 Y67.474 Z29.0 E0.7968 F800.0
G1 X203.486 Y62.266 Z29.941 E0.8219 F800.0
; layer 16
G92 E0
G1 X203.486 Y62.266 Z29.941 E0 F2000.0
G1 X198.017 Y61.127 Z30.195 E0.0206 F800.0
G1 X192.335 Y60.899 Z30.355 E0.0416 F800.0
G1 X186.686 Y60.711 Z30.625 E0.0627 F800.0
G1 X181.07 Y60.506 Z30.995 E0.0839 F800.0
G1 X175.498 Y60.267 Z31.436 E0.1053 F800.0
G1 X170.491 Y61.21 Z31.632 E0.1247 F800.0
G1 X167.519 Y66.55 Z30.768 E0.1465 F800.0
G1 X165.139 Y72.973 Z29.846 E0.1703 F800.0
G1 X162.795 Y79.299 Z29.25 E0.1935 F800.0
G1 X160.452 Y85.67 Z28.995 E0.2166 F800.0
G1 X158.085 Y92.244 Z29.09 E0.2405 F800.0
G1 X155.916 Y98.98 Z29.46 E0.2651 F800.0
G1 X158.078 Y105.72 Z29.199 E0.2893 F800.0
G1 X160.443 Y112.304 Z29.213 E0.3131 F800.0
G1 X162.791 Y118.694 Z29.58 E0.3363 F800.0
G1 X165.144 Y125.047 Z30.296 E0.3597 F800.0
G1 X167.538 Y131.51 Z31.348 E0.3841 F800.0
G1 X170.528 Y136.895 Z32.348 E0.4079 F800.0
G1 X175.55 Y137.873 Z32.267 E0.4274 F800.0
G1 X181.14 Y137.662 Z31.931 E0.4485 F800.0
G1 X186.777 Y137.482 Z31.667 E0.4696 F800.0
G1 X192.45 Y137.316 Z31.503 E0.4905 F800.0
G1 X198.161 Y137.111 Z31.452 E0.5116 F800.0
G1 X203.665 Y135.99 Z31.302 E0.5322 F800.0
G1 X208.044 Y130.769 Z30.429 E0.5563 F800.0
G1 X212.089 Y124.794 Z29.705 E0.5812 F800.0
G1 X215.946 Y118.905 Z29.214 E0.6051 F800.0
G1 X219.641 Y112.748 Z28.776 E0.6291 F800.0
G1 X223.24 Y106.051 Z28.407 E0.654 F800.0
G1 X226.508 Y98.98 Z28.257 E0.6794 F800.0
G1 X223.264 Y91.905 Z28.509 E0.7049 F800.0
G1 X219.689 Y85.196 Z28.983 E0.7303 F800.0
G1 X216.014 Y79.016 Z29.529 E0.7547 F800.0
G1 X212.169 Y73.094 Z30.133 E0.779 F800.0
G1 X208.132 Y67.082 Z30.979 E0.8045 F800.0
G1 X203.754 Y61.821 Z31.982 E0.8299 F800.0
; layer 17
G92 E0
G1 X203.754 Y61.821 Z31.982 E0 F2000.0
G1 X198.253 Y60.671 Z32.252 E0.0208 F800.0
G1 X192.543 Y60.439 Z32.422 E0.0419 F800.0
G1 X186.868 Y60.245 Z32.709 E0.0631 F800.0
G1 X181.227 Y60.037 Z33.102 E0.0844 F800.0
G1 X175.632 Y59.802 Z33.573 E0.1058 F800.0
G1 X170.6 Y60.771 Z33.781 E0.1254 F800.0
G1 X167.588 Y66.191 Z32.858 E0.1475 F800.0
G1 X165.161 Y72.7 Z31.872 E0.1716 F800.0
G1 X162.768 Y79.1 Z31.232 E0.195 F800.0
G1 X160.373 Y85.538 Z30.956 E0.2184 F800.0
G1 X157.959 Y92.176 Z31.052 E0.2426 F800.0
G1 X155.711 Y98.98 Z31.437 E0.2674 F800.0
G1 X157.952 Y105.787 Z31.161 E0.292 F800.0
G1 X160.365 Y112.436 Z31.174 E0.316 F800.0
G1 X162.763 Y118.893 Z31.563 E0.3395 F800.0
G1 X165.166 Y125.32 Z32.323 E0.3631 F800.0
G1 X167.607 Y131.868 Z33.439 E0.3879 F800.0
G1 X170.637 Y137.335 Z34.498 E0.412 F800.0
G1 X175.685 Y138.338 Z34.404 E0.4317 F800.0
G1 X181.297 Y138.132 Z34.039 E0.4529 F800.0
G1 X186.958 Y137.948 Z33.751 E0.474 F800.0
G1 X192.658 Y137.776 Z33.57 E0.495 F800.0
G1 X198.397 Y137.567 Z33.509 E0.5162 F800.0
G1 X203.933 Y136.435 Z33.343 E0.5369 F800.0
G1 X208.359 Y131.161 Z32.409 E0.5613 F800.0
G1 X212.452 Y125.116 Z31.633 E0.5865 F800.0
G1 X216.352 Y119.138 Z31.107 E0.6107 F800.0
G1 X220.086 Y112.899 Z30.633 E0.635 F800.0
G1 X223.719 Y106.136 Z30.229 E0.6602 F800.0
G1 X226.994 Y98.98 Z30.066 E0.6858 F800.0
G1 X223.747 Y91.818 Z30.33 E0.7117 F800.0
G1 X220.136 Y85.043 Z30.839 E0.7373 F800.0
G1 X216.419 Y78.783 Z31.422 E0.762 F800.0
G1 X212.532 Y72.772 Z32.062 E0.7866 F800.0
G1 X208.447 Y66.69 Z32.959 E0.8124 F800.0
G1 X204.023 Y61.376 Z34.023 E0.838 F800.0
; layer 18
G92 E0
G1 X204.023 Y61.376 Z34.023 E0 F2000.0
G1 X198.488 Y60.213 Z34.309 E0.0209 F800.0
G1 X192.75 Y59.977 Z34.488 E0.0421 F800.0
G1 X187.048 Y59.775 Z34.792 E0.0634 F800.0
G1 X181.382 Y59.56 Z35.208 E0.0848 F800.0
G1 X175.76 Y59.324 Z35.706 E0.1064 F800.0
G1 X170.696 Y60.311 Z35.926 E0.1261 F800.0
G1 X167.642 Y65.815 Z34.945 E0.1484 F800.0
G1 X165.171 Y72.416 Z33.896 E0.1728 F800.0
G1 X162.723 Y78.891 Z33.212 E0.1965 F800.0
G1 X160.264 Y85.394 Z32.913 E0.2202 F800.0
G1 X157.768 Y92.098 Z33.006 E0.2447 F800.0
G1 X155.386 Y98.98 Z33.395 E0.2699 F800.0
G1 X157.75 Y105.867 Z33.114 E0.2948 F800.0
G1 X160.242 Y112.585 Z33.13 E0.3191 F800.0
G1 X162.707 Y119.109 Z33.541 E0.3429 F800.0
G1 X165.162 Y125.617 Z34.344 E0.3667 F800.0
G1 X167.641 Y132.269 Z35.521 E0.3917 F800.0
G1 X170.704 Y137.838 Z36.634 E0.4163 F800.0
G1 X175.792 Y138.855 Z36.529 E0.4361 F800.0
G1 X181.44 Y138.635 Z36.138 E0.4574 F800.0
G1 X187.134 Y138.438 Z35.829 E0.4787 F800.0
G1 X192.863 Y138.26 Z35.631 E0.4998 F800.0
G1 X198.634 Y138.064 Z35.556 E0.5211 F800.0
G1 X204.213 Y136.94 Z35.367 E0.542 F800.0
G1 X208.695 Y131.595 Z34.376 E0.5666 F800.0
G1 X212.844 Y125.472 Z33.549 E0.5921 F800.0
G1 X216.802 Y119.41 Z32.984 E0.6166 F800.0
G1 X220.573 Y113.08 Z32.476 E0.6413 F800.0
G1 X224.218 Y106.229 Z32.046 E0.6667 F800.0
G1 X227.486 Y98.98 Z31.872 E0.6927 F800.0
G1 X224.245 Y91.726 Z32.147 E0.7187 F800.0
G1 X220.629 Y84.858 Z32.681 E0.7447 F800.0
G1 X216.88 Y78.502 Z33.296 E0.7697 F800.0
G1 X212.933 Y72.406 Z33.974 E0.7946 F800.0
G1 X208.79 Y66.239 Z34.92 E0.8207 F800.0
G1 X204.309 Y60.841 Z36.039 E0.8467 F800.0
; layer 19
G92 E0
G1 X204.309 Y60.841 Z36.039 E0 F2000.0
G1 X198.727 Y59.692 Z36.349 E0.021 F800.0
G1 X192.952 Y59.473 Z36.544 E0.0424 F800.0
G1 X187.217 Y59.262 Z36.864 E0.0638 F800.0
G1 X181.511 Y59.022 Z37.299 E0.0854 F800.0
G1 X175.839 Y58.756 Z37.82 E0.1071 F800.0
G1 X170.721 Y59.744 Z38.049 E0.127 F800.0
G1 X167.633 Y65.36 Z37.017 E0.1496 F800.0
G1 X165.122 Y72.076 Z35.911 E0.1743 F800.0
G1 X162.61 Y78.638 Z35.184 E0.1983 F800.0
G1 X160.058 Y85.215 Z34.859 E0.2224 F800.0
G1 X157.438 Y91.998 Z34.943 E0.2472 F800.0
G1 X154.973 Y98.98 Z35.341 E0.2729 F800.0
G1 X157.419 Y105.967 Z35.051 E0.2982 F800.0
G1 X160.031 Y112.766 Z35.075 E0.323 F800.0
G1 X162.583 Y119.369 Z35.512 E0.347 F800.0
G1 X165.102 Y125.968 Z36.357 E0.371 F800.0
G1 X167.626 Y132.733 Z37.591 E0.3963 F800.0
G1 X170.73 Y138.405 Z38.756 E0.4214 F800.0
G1 X175.865 Y139.434 Z38.64 E0.4414 F800.0
G1 X181.558 Y139.202 Z38.223 E0.4629 F800.0
G1 X187.291 Y138.993 Z37.892 E0.4843 F800.0
G1 X193.06 Y138.812 Z37.675 E0.5056 F800.0
G1 X198.874 Y138.626 Z37.585 E0.5271 F800.0
G1 X204.505 Y137.502 Z37.375 E0.5481 F800.0
G1 X209.052 Y132.075 Z36.328 E0.573 F800.0
G1 X213.264 Y125.86 Z35.454 E0.5989 F800.0
G1 X217.273 Y119.701 Z34.853 E0.6239 F800.0
G1 X221.072 Y113.269 Z34.317 E0.6488 F800.0
G1 X224.717 Y106.321 Z33.863 E0.6746 F800.0
G1 X227.977 Y98.98 Z33.679 E0.7008 F800.0
G1 X224.745 Y91.633 Z33.964 E0.7271 F800.0
G1 X221.127 Y84.669 Z34.521 E0.7534 F800.0
G1 X217.352 Y78.21 Z35.165 E0.7787 F800.0
G1 X213.359 Y72.012 Z35.876 E0.804 F800.0
G1 X209.153 Y65.747 Z36.869 E0.8304 F800.0
G1 X204.603 Y60.266 Z38.043 E0.8569 F800.0
; layer 20
G92 E0
G1 X204.603 Y60.266 Z38.043 E0 F2000.0
G1 X198.967 Y59.106 Z38.372 E0.0213 F800.0
G1 X193.146 Y58.888 Z38.58 E0.0428 F800.0
G1 X187.366 Y58.672 Z38.919 E0.0644 F800.0
G1 X181.617 Y58.428 Z39.378 E0.0861 F800.0
G1 X175.906 Y58.164 Z39.928 E0.108 F800.0
G1 X170.746 Y59.176 Z40.17 E0.1281 F800.0
G1 X167.606 Y64.881 Z39.084 E0.151 F800.0
G1 X165.033 Y71.698 Z37.918 E0.176 F800.0
G1 X162.448 Y78.354 Z37.149 E0.2004 F800.0
G1 X159.813 Y85.021 Z36.801 E0.2249 F800.0
G1 X157.107 Y91.898 Z36.88 E0.2501 F800.0
G1 X154.559 Y98.98 Z37.287 E0.2762 F800.0
G1 X157.088 Y106.067 Z36.987 E0.302 F800.0
G1 X159.785 Y112.96 Z37.017 E0.3271 F800.0
G1 X162.42 Y119.653 Z37.477 E0.3515 F800.0
G1 X165.014 Y126.346 Z38.364 E0.3759 F800.0
G1 X167.598 Y133.212 Z39.659 E0.4015 F800.0
G1 X170.754 Y138.973 Z40.878 E0.4271 F800.0
G1 X175.931 Y140.026 Z40.748 E0.4472 F800.0
G1 X181.664 Y139.796 Z40.302 E0.4689 F800.0
G1 X187.44 Y139.582 Z39.947 E0.4905 F800.0
G1 X193.254 Y139.397 Z39.712 E0.512 F800.0
G1 X199.115 Y139.211 Z39.608 E0.5336 F800.0
G1 X204.799 Y138.078 Z39.379 E0.5548 F800.0
G1 X209.415 Y132.568 Z38.277 E0.5801 F800.0
G1 X213.69 Y126.256 Z37.355 E0.6064 F800.0
G1 X217.747 Y119.993 Z36.722 E0.6317 F800.0
G1 X221.57 Y113.458 Z36.157 E0.657 F800.0
G1 X225.217 Y106.414 Z35.68 E0.6831 F800.0
G1 X228.468 Y98.98 Z35.486 E0.7095 F800.0
G1 X225.245 Y91.54 Z35.78 E0.7362 F800.0
G1 X221.625 Y84.481 Z36.361 E0.7627 F800.0
G1 X217.825 Y77.917 Z37.033 E0.7884 F800.0
G1 X213.785 Y71.616 Z37.778 E0.814 F800.0
G1 X209.516 Y65.255 Z38.818 E0.8408 F800.0
G1 X204.897 Y59.69 Z40.048 E0.8677 F800.0
; layer 21
G92 E0
G1 X204.897 Y59.69 Z40.048 E0 F2000.0
G1 X199.208 Y58.52 Z40.395 E0.0215 F800.0
G1 X193.34 Y58.303 Z40.617 E0.0432 F800.0
G1 X187.514 Y58.083 Z40.974 E0.065 F800.0
G1 X181.723 Y57.834 Z41.457 E0.0869 F800.0
G1 X175.972 Y57.572 Z42.036 E0.1089 F800.0
G1 X170.771 Y58.608 Z42.292 E0.1292 F800.0
G1 X167.579 Y64.402 Z41.152 E0.1524 F800.0
G1 X164.945 Y71.32 Z39.925 E0.1778 F800.0
G1 X162.285 Y78.069 Z39.115 E0.2026 F800.0
G1 X159.568 Y84.828 Z38.743 E0.2274 F800.0
G1 X156.776 Y91.799 Z38.817 E0.2531 F800.0
G1 X154.146 Y98.98 Z39.233 E0.2796 F800.0
G1 X156.757 Y106.167 Z38.924 E0.3057 F800.0
G1 X159.54 Y113.153 Z38.959 E0.3313 F800.0
G1 X162.258 Y119.938 Z39.442 E0.3561 F800.0
G1 X164.925 Y126.724 Z40.371 E0.3808 F800.0
G1 X167.571 Y133.691 Z41.726 E0.4068 F800.0
G1 X170.779 Y139.541 Z43.0 E0.4328 F800.0
G1 X175.998 Y140.618 Z42.856 E0.4531 F800.0
G1 X181.77 Y140.39 Z42.381 E0.4749 F800.0
G1 X187.589 Y140.171 Z42.002 E0.4967 F800.0
G1 X193.447 Y139.981 Z41.748 E0.5183 F800.0
G1 X199.355 Y139.797 Z41.631 E0.5401 F800.0
G1 X205.093 Y138.653 Z41.384 E0.5616 F800.0
G1 X209.778 Y133.061 Z40.225 E0.5873 F800.0
G1 X214.116 Y126.651 Z39.257 E0.6139 F800.0
G1 X218.22 Y120.286 Z38.591 E0.6396 F800.0
G1 X222.068 Y113.647 Z37.997 E0.6653 F800.0
G1 X225.717 Y106.507 Z37.496 E0.6916 F800.0
G1 X228.985 Y98.98 Z37.286 E0.7184 F800.0
G1 X225.745 Y91.447 Z37.597 E0.7453 F800.0
G1 X222.123 Y84.292 Z38.202 E0.7721 F800.0
G1 X218.299 Y77.625 Z38.902 E0.7982 F800.0
G1 X214.211 Y71.221 Z39.679 E0.8242 F800.0
G1 X209.879 Y64.762 Z40.766 E0.8513 F800.0
G1 X205.191 Y59.115 Z42.052 E0.8787 F800.0
; layer 22
G92 E0
G1 X205.191 Y59.115 Z42.052 E0 F2000.0
G1 X199.449 Y57.934 Z42.418 E0.0217 F800.0
G1 X193.533 Y57.718 Z42.653 E0.0436 F800.0
G1 X187.663 Y57.493 Z43.029 E0.0655 F800.0
G1 X181.829 Y57.24 Z43.536 E0.0876 F800.0
G1 X176.038 Y56.98 Z44.144 E0.1098 F800.0
G1 X170.796 Y58.039 Z44.414 E0.1303 F800.0
G1 X167.551 Y63.923 Z43.219 E0.1538 F800.0
G1 X164.856 Y70.942 Z41.933 E0.1796 F800.0
G1 X162.122 Y77.785 Z41.08 E0.2047 F800.0
G1 X159.322 Y84.635 Z40.685 E0.23 F800.0
G1 X156.445 Y91.699 Z40.753 E0.256 F800.0
G1 X153.702 Y98.98 Z41.17 E0.283 F800.0
G1 X156.427 Y106.266 Z40.861 E0.3096 F800.0
G1 X159.295 Y113.346 Z40.9 E0.3356 F800.0
G1 X162.095 Y120.222 Z41.408 E0.3607 F800.0
G1 X164.836 Y127.102 Z42.379 E0.3858 F800.0
G1 X167.544 Y134.169 Z43.793 E0.4122 F800.0
G1 X170.804 Y140.11 Z45.121 E0.4386 F800.0
G1 X176.064 Y141.21 Z44.964 E0.459 F800.0
G1 X181.876 Y140.984 Z44.46 E0.481 F800.0
G1 X187.737 Y140.761 Z44.056 E0.5029 F800.0
G1 X193.641 Y140.566 Z43.785 E0.5248 F800.0
G1 X199.596 Y140.383 Z43.655 E0.5468 F800.0
G1 X205.387 Y139.229 Z43.388 E0.5684 F800.0
G1 X210.141 Y133.553 Z42.174 E0.5944 F800.0
G1 X214.543 Y127.046 Z41.159 E0.6215 F800.0
G1 X218.693 Y120.578 Z40.46 E0.6476 F800.0
G1 X222.566 Y113.836 Z39.838 E0.6736 F800.0
G1 X226.239 Y106.616 Z39.306 E0.7002 F800.0
G1 X229.55 Y98.98 Z39.071 E0.7273 F800.0
G1 X226.268 Y91.338 Z39.406 E0.7547 F800.0
G1 X222.622 Y84.103 Z40.042 E0.7817 F800.0
G1 X218.772 Y77.332 Z40.771 E0.8081 F800.0
G1 X214.638 Y70.825 Z41.581 E0.8345 F800.0
G1 X210.242 Y64.269 Z42.715 E0.8621 F800.0
G1 X205.485 Y58.539 Z44.056 E0.8898 F800.0
; layer 23
G92 E0
G1 X205.485 Y58.539 Z44.056 E0 F2000.0
G1 X199.69 Y57.348 Z44.441 E0.0219 F800.0
G1 X193.727 Y57.134 Z44.69 E0.044 F800.0
G1 X187.812 Y56.904 Z45.084 E0.0661 F800.0
G1 X181.935 Y56.646 Z45.615 E0.0883 F800.0
G1 X176.104 Y56.388 Z46.252 E0.1107 F800.0
G1 X170.817 Y57.466 Z46.534 E0.1313 F800.0
G1 X167.524 Y63.445 Z45.286 E0.1552 F800.0
G1 X164.767 Y70.564 Z43.94 E0.1814 F800.0
G1 X161.96 Y77.5 Z43.046 E0.2069 F800.0
G1 X159.069 Y84.437 Z42.624 E0.2325 F800.0
G1 X156.07 Y91.588 Z42.679 E0.259 F800.0
G1 X153.147 Y98.98 Z43.076 E0.2865 F800.0
G1 X156.044 Y106.379 Z42.785 E0.3136 F800.0
G1 X159.038 Y113.546 Z42.839 E0.34 F800.0
G1 X161.933 Y120.507 Z43.373 E0.3655 F800.0
G1 X164.748 Y127.48 Z44.386 E0.391 F800.0
G1 X167.516 Y134.648 Z45.86 E0.4177 F800.0
G1 X170.819 Y140.693 Z47.238 E0.4446 F800.0
G1 X176.13 Y141.802 Z47.072 E0.4653 F800.0
G1 X181.982 Y141.578 Z46.539 E0.4874 F800.0
G1 X187.886 Y141.35 Z46.111 E0.5095 F800.0
G1 X193.835 Y141.151 Z45.821 E0.5315 F800.0
G1 X199.837 Y140.969 Z45.678 E0.5537 F800.0
G1 X205.683 Y139.811 Z45.39 E0.5755 F800.0
G1 X210.505 Y134.046 Z44.122 E0.6019 F800.0
G1 X214.969 Y127.442 Z43.06 E0.6294 F800.0
G1 X219.173 Y120.883 Z42.324 E0.6558 F800.0
G1 X223.089 Y114.063 Z41.666 E0.6821 F800.0
G1 X226.793 Y106.746 Z41.104 E0.7091 F800.0
G1 X230.125 Y98.98 Z40.853 E0.7366 F800.0
G1 X226.824 Y91.206 Z41.204 E0.7644 F800.0
G1 X223.148 Y83.87 Z41.869 E0.7917 F800.0
G1 X219.253 Y77.025 Z42.635 E0.8185 F800.0
G1 X215.064 Y70.43 Z43.483 E0.8452 F800.0
G1 X210.606 Y63.777 Z44.664 E0.8731 F800.0
G1 X205.781 Y57.953 Z46.057 E0.9013 F800.0
; layer 24
G92 E0
G1 X205.781 Y57.953 Z46.057 E0 F2000.0
G1 X199.931 Y56.759 Z46.464 E0.0221 F800.0
G1 X193.92 Y56.545 Z46.725 E0.0443 F800.0
G1 X187.958 Y56.309 Z47.137 E0.0666 F800.0
G1 X182.037 Y56.043 Z47.691 E0.089 F800.0
G1 X176.16 Y55.778 Z48.355 E0.1116 F800.0
G1 X170.81 Y56.848 Z48.641 E0.1324 F800.0
G1 X167.478 Y62.938 Z47.345 E0.1566 F800.0
G1 X164.659 Y70.161 Z45.94 E0.1831 F800.0
G1 X161.77 Y77.19 Z45.003 E0.2089 F800.0
G1 X158.759 Y84.206 Z44.551 E0.2349 F800.0
G1 X155.579 Y91.449 Z44.578 E0.2619 F800.0
G1 X152.493 Y98.98 Z44.955 E0.2901 F800.0
G1 X155.55 Y106.519 Z44.683 E0.3179 F800.0
G1 X158.714 Y113.785 Z44.762 E0.3448 F800.0
G1 X161.724 Y120.835 Z45.325 E0.3706 F800.0
G1 X164.62 Y127.907 Z46.379 E0.3963 F800.0
G1 X167.443 Y135.194 Z47.908 E0.4233 F800.0
G1 X170.787 Y141.347 Z49.334 E0.4506 F800.0
G1 X176.157 Y142.462 Z49.16 E0.4715 F800.0
G1 X182.066 Y142.218 Z48.604 E0.4938 F800.0
G1 X188.023 Y141.977 Z48.155 E0.5161 F800.0
G1 X194.022 Y141.778 Z47.844 E0.5383 F800.0
G1 X200.079 Y141.621 Z47.68 E0.5606 F800.0
G1 X205.991 Y140.471 Z47.365 E0.5827 F800.0
G1 X210.889 Y134.601 Z46.049 E0.6095 F800.0
G1 X215.421 Y127.89 Z44.944 E0.6373 F800.0
G1 X219.677 Y121.236 Z44.174 E0.664 F800.0
G1 X223.627 Y114.316 Z43.487 E0.6907 F800.0
G1 X227.353 Y106.88 Z42.901 E0.718 F800.0
G1 X230.699 Y98.98 Z42.635 E0.746 F800.0
G1 X227.384 Y91.072 Z43.0 E0.7742 F800.0
G1 X223.688 Y83.615 Z43.689 E0.8019 F800.0
G1 X219.763 Y76.662 Z44.482 E0.829 F800.0
G1 X215.524 Y69.966 Z45.361 E0.856 F800.0
G1 X210.998 Y63.197 Z46.582 E0.8842 F800.0
G1 X206.096 Y57.257 Z48.02 E0.9129 F800.0
; layer 25
G92 E0
G1 X206.096 Y57.257 Z48.02 E0 F2000.0
G1 X200.173 Y56.071 Z48.453 E0.0223 F800.0
G1 X194.103 Y55.888 Z48.739 E0.0448 F800.0
G1 X188.086 Y55.651 Z49.172 E0.0673 F800.0
G1 X182.102 Y55.361 Z49.744 E0.0899 F800.0
G1 X176.151 Y55.057 Z50.424 E0.1127 F800.0
G1 X170.742 Y56.14 Z50.719 E0.1338 F800.0
G1 X167.351 Y62.316 Z49.37 E0.1581 F800.0
G1 X164.479 Y69.666 Z47.915 E0.1847 F800.0
G1 X161.493 Y76.797 Z46.936 E0.2109 F800.0
G1 X158.358 Y83.924 Z46.455 E0.2374 F800.0
G1 X155.052 Y91.301 Z46.467 E0.265 F800.0
G1 X151.84 Y98.98 Z46.834 E0.2939 F800.0
G1 X155.022 Y106.666 Z46.572 E0.3223 F800.0
G1 X158.314 Y114.067 Z46.667 E0.3498 F800.0
G1 X161.445 Y121.23 Z47.258 E0.376 F800.0
G1 X164.435 Y128.409 Z48.352 E0.4019 F800.0
G1 X167.316 Y135.817 Z49.932 E0.4291 F800.0
G1 X170.72 Y142.056 Z51.412 E0.4569 F800.0
G1 X176.147 Y143.184 Z51.228 E0.478 F800.0
G1 X182.122 Y142.919 Z50.651 E0.5006 F800.0
G1 X188.14 Y142.666 Z50.18 E0.5231 F800.0
G1 X194.2 Y142.468 Z49.849 E0.5455 F800.0
G1 X200.322 Y142.325 Z49.664 E0.5681 F800.0
G1 X206.306 Y141.167 Z49.328 E0.5905 F800.0
G1 X211.284 Y135.189 Z47.965 E0.6176 F800.0
G1 X215.886 Y128.363 Z46.818 E0.6459 F800.0
G1 X220.19 Y121.604 Z46.019 E0.673 F800.0
G1 X224.169 Y114.573 Z45.307 E0.7 F800.0
G1 X227.913 Y107.015 Z44.697 E0.7278 F800.0
G1 X231.274 Y98.98 Z44.417 E0.7562 F800.0
G1 X227.944 Y90.937 Z44.797 E0.7848 F800.0
G1 X224.229 Y83.358 Z45.509 E0.8129 F800.0
G1 X220.275 Y76.295 Z46.327 E0.8403 F800.0
G1 X215.989 Y69.491 Z47.235 E0.8677 F800.0
G1 X211.393 Y62.607 Z48.497 E0.8964 F800.0
G1 X206.411 Y56.561 Z49.982 E0.9256 F800.0
; layer 26
G92 E0
G1 X206.411 Y56.561 Z49.982 E0 F2000.0
G1 X200.416 Y55.358 Z50.435 E0.0226 F800.0
G1 X194.278 Y55.176 Z50.736 E0.0454 F800.0
G1 X188.195 Y54.936 Z51.189 E0.0681 F800.0
G1 X182.149 Y54.64 Z51.785 E0.0909 F800.0
G1 X176.14 Y54.333 Z52.491 E0.114 F800.0
G1 X170.675 Y55.431 Z52.797 E0.1353 F800.0
G1 X167.224 Y61.693 Z51.395 E0.1599 F800.0
G1 X164.281 Y69.148 Z49.882 E0.1869 F800.0
G1 X161.203 Y76.392 Z48.865 E0.2135 F800.0
G1 X157.957 Y83.642 Z48.36 E0.2406 F800.0
G1 X154.525 Y91.154 Z48.357 E0.2688 F800.0
G1 X151.187 Y98.98 Z48.713 E0.2983 F800.0
G1 X154.495 Y106.814 Z48.462 E0.3273 F800.0
G1 X157.913 Y114.349 Z48.572 E0.3554 F800.0
G1 X161.155 Y121.635 Z49.187 E0.3822 F800.0
G1 X164.237 Y128.927 Z50.32 E0.4084 F800.0
G1 X167.189 Y136.44 Z51.957 E0.436 F800.0
G1 X170.652 Y142.764 Z53.49 E0.4642 F800.0
G1 X176.136 Y143.908 Z53.295 E0.4856 F800.0
G1 X182.17 Y143.639 Z52.692 E0.5084 F800.0
G1 X188.249 Y143.381 Z52.197 E0.5311 F800.0
G1 X194.375 Y143.18 Z51.846 E0.5538 F800.0
G1 X200.564 Y143.038 Z51.646 E0.5767 F800.0
G1 X206.621 Y141.863 Z51.29 E0.5993 F800.0
G1 X211.679 Y135.779 Z49.88 E0.6269 F800.0
G1 X216.351 Y128.838 Z48.692 E0.6556 F800.0
G1 X220.702 Y121.971 Z47.864 E0.6831 F800.0
G1 X224.71 Y114.83 Z47.127 E0.7105 F800.0
G1 X228.473 Y107.149 Z46.494 E0.7386 F800.0
G1 X231.852 Y98.98 Z46.198 E0.7675 F800.0
G1 X228.504 Y90.803 Z46.593 E0.7965 F800.0
G1 X224.771 Y83.101 Z47.329 E0.8251 F800.0
G1 X220.788 Y75.927 Z48.172 E0.8528 F800.0
G1 X216.454 Y69.016 Z49.109 E0.8806 F800.0
G1 X211.789 Y62.016 Z50.412 E0.9097 F800.0
G1 X206.726 Y55.864 Z51.944 E0.9394 F800.0
; layer 27
G92 E0
G1 X206.726 Y55.864 Z51.944 E0 F2000.0
G1 X200.659 Y54.645 Z52.417 E0.0229 F800.0
G1 X194.453 Y54.463 Z52.733 E0.0459 F800.0
G1 X188.304 Y54.221 Z53.206 E0.0689 F800.0
G1 X182.196 Y53.92 Z53.825 E0.0919 F800.0
G1 X176.129 Y53.609 Z54.559 E0.1152 F800.0
G1 X170.607 Y54.723 Z54.876 E0.1368 F800.0
G1 X167.097 Y61.069 Z53.419 E0.1617 F800.0
G1 X164.083 Y68.63 Z51.85 E0.1891 F800.0
G1 X160.913 Y75.987 Z50.794 E0.2162 F800.0
G1 X157.557 Y83.36 Z50.265 E0.2438 F800.0
G1 X153.998 Y91.006 Z50.247 E0.2726 F800.0
G1 X150.523 Y98.98 Z50.588 E0.3027 F800.0
G1 X153.968 Y106.962 Z50.352 E0.3324 F800.0
G1 X157.512 Y114.63 Z50.476 E0.3611 F800.0
G1 X160.865 Y122.04 Z51.116 E0.3884 F800.0
G1 X164.039 Y129.445 Z52.288 E0.4151 F800.0
G1 X167.062 Y137.063 Z53.981 E0.4431 F800.0
G1 X170.584 Y143.473 Z55.568 E0.4717 F800.0
G1 X176.125 Y144.633 Z55.363 E0.4933 F800.0
G1 X182.217 Y144.36 Z54.733 E0.5163 F800.0
G1 X188.358 Y144.097 Z54.214 E0.5393 F800.0
G1 X194.55 Y143.892 Z53.843 E0.5622 F800.0
G1 X200.807 Y143.751 Z53.628 E0.5853 F800.0
G1 X206.936 Y142.559 Z53.253 E0.6083 F800.0
G1 X212.075 Y136.37 Z51.795 E0.6363 F800.0
G1 X216.816 Y129.313 Z50.567 E0.6654 F800.0
G1 X221.215 Y122.339 Z49.709 E0.6934 F800.0
G1 X225.252 Y115.087 Z48.946 E0.7211 F800.0
G1 X229.033 Y107.284 Z48.29 E0.7497 F800.0
G1 X232.482 Y98.98 Z47.961 E0.779 F800.0
G1 X229.064 Y90.668 Z48.39 E0.8085 F800.0
G1 X225.312 Y82.844 Z49.148 E0.8375 F800.0
G1 X221.3 Y75.56 Z50.017 E0.8656 F800.0
G1 X216.92 Y68.541 Z50.983 E0.8938 F800.0
G1 X212.185 Y61.426 Z52.327 E0.9233 F800.0
G1 X207.041 Y55.168 Z53.907 E0.9536 F800.0
; layer 28
G92 E0
G1 X207.041 Y55.168 Z53.907 E0 F2000.0
G1 X200.902 Y53.932 Z54.399 E0.0232 F800.0
G1 X194.627 Y53.751 Z54.731 E0.0464 F800.0
G1 X188.413 Y53.505 Z55.223 E0.0697 F800.0
G1 X182.243 Y53.2 Z55.866 E0.0929 F800.0
G1 X176.118 Y52.884 Z56.626 E0.1165 F800.0
G1 X170.539 Y54.014 Z56.954 E0.1383 F800.0
G1 X166.97 Y60.446 Z55.444 E0.1635 F800.0
G1 X163.885 Y68.112 Z53.818 E0.1913 F800.0
G1 X160.624 Y75.582 Z52.724 E0.2189 F800.0
G1 X157.156 Y83.079 Z52.169 E0.247 F800.0
G1 X153.459 Y90.854 Z52.132 E0.2764 F800.0
G1 X149.795 Y98.98 Z52.437 E0.3072 F800.0
G1 X153.427 Y107.115 Z52.237 E0.3377 F800.0
G1 X157.111 Y114.912 Z52.381 E0.367 F800.0
G1 X160.575 Y122.445 Z53.045 E0.3948 F800.0
G1 X163.841 Y129.963 Z54.256 E0.4219 F800.0
G1 X166.935 Y137.687 Z56.006 E0.4503 F800.0
G1 X170.517 Y144.182 Z57.647 E0.4794 F800.0
G1 X176.114 Y145.357 Z57.43 E0.5012 F800.0
G1 X182.264 Y145.08 Z56.773 E0.5244 F800.0
G1 X188.467 Y144.812 Z56.231 E0.5476 F800.0
G1 X194.724 Y144.604 Z55.84 E0.5708 F800.0
G1 X201.05 Y144.464 Z55.61 E0.5942 F800.0
G1 X207.251 Y143.256 Z55.215 E0.6174 F800.0
G1 X212.471 Y136.96 Z53.71 E0.6459 F800.0
G1 X217.282 Y129.788 Z52.441 E0.6755 F800.0
G1 X221.728 Y122.706 Z51.554 E0.7038 F800.0
G1 X225.797 Y115.349 Z50.764 E0.7319 F800.0
G1 X229.631 Y107.449 Z50.071 E0.7608 F800.0
G1 X233.123 Y98.98 Z49.721 E0.7907 F800.0
G1 X229.665 Y90.501 Z50.17 E0.8207 F800.0
G1 X225.857 Y82.581 Z50.966 E0.8501 F800.0
G1 X221.813 Y75.192 Z51.862 E0.8786 F800.0
G1 X217.385 Y68.066 Z52.857 E0.9071 F800.0
G1 X212.581 Y60.835 Z54.241 E0.9371 F800.0
G1 X207.356 Y54.472 Z55.869 E0.9679 F800.0
; layer 29
G92 E0
G1 X207.356 Y54.472 Z55.869 E0 F2000.0
G1 X201.145 Y53.219 Z56.38 E0.0235 F800.0
G1 X194.802 Y53.039 Z56.728 E0.047 F800.0
G1 X188.522 Y52.79 Z57.24 E0.0704 F800.0
G1 X182.29 Y52.479 Z57.907 E0.0939 F800.0
G1 X176.107 Y52.16 Z58.694 E0.1177 F800.0
G1 X170.47 Y53.303 Z59.031 E0.1397 F800.0
G1 X166.843 Y59.823 Z57.468 E0.1654 F800.0
G1 X163.687 Y67.594 Z55.786 E0.1935 F800.0
G1 X160.334 Y75.177 Z54.653 E0.2215 F800.0
G1 X156.741 Y82.785 Z54.069 E0.2502 F800.0
G1 X152.867 Y90.682 Z54.0 E0.2802 F800.0
G1 X148.983 Y98.98 Z54.253 E0.312 F800.0
G1 X152.831 Y107.288 Z54.102 E0.3432 F800.0
G1 X156.691 Y115.21 Z54.278 E0.3731 F800.0
G1 X160.286 Y122.85 Z54.975 E0.4014 F800.0
G1 X163.643 Y130.481 Z56.224 E0.429 F800.0
G1 X166.808 Y138.31 Z58.03 E0.4578 F800.0
G1 X170.445 Y144.897 Z59.722 E0.4873 F800.0
G1 X176.103 Y146.081 Z59.498 E0.5093 F800.0
G1 X182.311 Y145.8 Z58.814 E0.5328 F800.0
G1 X188.576 Y145.528 Z58.248 E0.5562 F800.0
G1 X194.899 Y145.316 Z57.837 E0.5797 F800.0
G1 X201.293 Y145.179 Z57.59 E0.6033 F800.0
G1 X207.57 Y143.989 Z57.162 E0.6268 F800.0
G1 X212.869 Y137.561 Z55.62 E0.6557 F800.0
G1 X217.75 Y130.27 Z54.312 E0.6858 F800.0
G1 X222.253 Y123.098 Z53.39 E0.7144 F800.0
G1 X226.366 Y115.654 Z52.567 E0.7428 F800.0
G1 X230.238 Y107.622 Z51.849 E0.7722 F800.0
G1 X233.763 Y98.98 Z51.481 E0.8026 F800.0
G1 X230.272 Y90.328 Z51.948 E0.8333 F800.0
G1 X226.43 Y82.27 Z52.767 E0.863 F800.0
G1 X222.341 Y74.795 Z53.696 E0.8918 F800.0
G1 X217.855 Y67.582 Z54.728 E0.9207 F800.0
G1 X212.98 Y60.23 Z56.15 E0.9511 F800.0
G1 X207.676 Y53.72 Z57.809 E0.9825 F800.0
; layer 30
G92 E0
G1 X207.676 Y53.72 Z57.809 E0 F2000.0
G1 X201.387 Y52.497 Z58.358 E0.0237 F800.0
G1 X194.976 Y52.32 Z58.723 E0.0475 F800.0
G1 X188.629 Y52.067 Z59.254 E0.0712 F800.0
G1 X182.333 Y51.749 Z59.944 E0.0949 F800.0
G1 X176.087 Y51.419 Z60.755 E0.119 F800.0
G1 X170.381 Y52.56 Z61.095 E0.1412 F800.0
G1 X166.701 Y59.178 Z59.484 E0.1671 F800.0
G1 X163.475 Y67.057 Z57.747 E0.1956 F800.0
G1 X160.024 Y74.748 Z56.573 E0.224 F800.0
G1 X156.278 Y82.452 Z55.95 E0.2532 F800.0
G1 X152.217 Y90.488 Z55.846 E0.2839 F800.0
G1 X148.171 Y98.98 Z56.069 E0.3165 F800.0
G1 X152.181 Y107.482 Z55.949 E0.3486 F800.0
G1 X156.223 Y115.548 Z56.157 E0.3792 F800.0
G1 X159.962 Y123.296 Z56.888 E0.408 F800.0
G1 X163.417 Y131.037 Z58.177 E0.4358 F800.0
G1 X166.645 Y138.986 Z60.034 E0.4648 F800.0
G1 X170.329 Y145.682 Z61.769 E0.4948 F800.0
G1 X176.056 Y146.871 Z61.539 E0.5171 F800.0
G1 X182.337 Y146.571 Z60.835 E0.5408 F800.0
G1 X188.671 Y146.292 Z60.246 E0.5644 F800.0
G1 X195.063 Y146.096 Z59.808 E0.5881 F800.0
G1 X201.532 Y145.999 Z59.529 E0.612 F800.0
G1 X207.896 Y144.809 Z59.073 E0.6358 F800.0
G1 X213.286 Y138.236 Z57.502 E0.6652 F800.0
G1 X218.242 Y130.803 Z56.163 E0.6956 F800.0
G1 X222.795 Y123.522 Z55.214 E0.7247 F800.0
G1 X226.942 Y115.971 Z54.367 E0.7534 F800.0
G1 X230.845 Y107.795 Z53.627 E0.7833 F800.0
G1 X234.403 Y98.98 Z53.24 E0.8143 F800.0
G1 X230.879 Y90.155 Z53.726 E0.8455 F800.0
G1 X227.006 Y81.954 Z54.567 E0.8757 F800.0
G1 X222.886 Y74.366 Z55.518 E0.9048 F800.0
G1 X218.353 Y67.034 Z56.573 E0.934 F800.0
G1 X213.404 Y59.528 Z58.021 E0.9648 F800.0
G1 X208.006 Y52.866 Z59.705 E0.9968 F800.0
; layer 31
G92 E0
G1 X208.006 Y52.866 Z59.705 E0 F2000.0
G1 X201.624 Y51.619 Z60.274 E0.0241 F800.0
G1 X195.132 Y51.495 Z60.675 E0.0481 F800.0
G1 X188.711 Y51.262 Z61.236 E0.0721 F800.0
G1 X182.339 Y50.932 Z61.947 E0.096 F800.0
G1 X176.007 Y50.568 Z62.771 E0.1204 F800.0
G1 X170.225 Y51.712 Z63.116 E0.143 F800.0
G1 X166.497 Y58.439 Z61.462 E0.169 F800.0
G1 X163.211 Y66.446 Z59.679 E0.1976 F800.0
G1 X159.652 Y74.244 Z58.464 E0.2264 F800.0
G1 X155.783 Y82.091 Z57.819 E0.2562 F800.0
G1 X151.567 Y90.294 Z57.693 E0.2877 F800.0
G1 X147.359 Y98.98 Z57.885 E0.3211 F800.0
G1 X151.531 Y107.676 Z57.796 E0.354 F800.0
G1 X155.728 Y115.908 Z58.026 E0.3854 F800.0
G1 X159.59 Y123.799 Z58.78 E0.4146 F800.0
G1 X163.148 Y131.654 Z60.107 E0.4427 F800.0
G1 X166.438 Y139.73 Z62.01 E0.4719 F800.0
G1 X170.173 Y146.53 Z63.789 E0.5024 F800.0
G1 X175.972 Y147.729 Z63.552 E0.525 F800.0
G1 X182.333 Y147.413 Z62.829 E0.5489 F800.0
G1 X188.743 Y147.132 Z62.215 E0.5729 F800.0
G1 X195.214 Y146.95 Z61.75 E0.5969 F800.0
G1 X201.768 Y146.877 Z61.444 E0.6211 F800.0
G1 X208.225 Y145.662 Z60.97 E0.6452 F800.0
G1 X213.71 Y138.94 Z59.371 E0.6752 F800.0
G1 X218.742 Y131.355 Z58.007 E0.7062 F800.0
G1 X223.341 Y123.954 Z57.036 E0.7356 F800.0
G1 X227.518 Y116.287 Z56.167 E0.7647 F800.0
G1 X231.452 Y107.968 Z55.405 E0.795 F800.0
G1 X235.043 Y98.98 Z55.0 E0.8266 F800.0
G1 X231.486 Y89.982 Z55.503 E0.8584 F800.0
G1 X227.582 Y81.637 Z56.367 E0.8891 F800.0
G1 X223.432 Y73.934 Z57.339 E0.9186 F800.0
G1 X218.854 Y66.482 Z58.417 E0.9482 F800.0
G1 X213.828 Y58.824 Z59.891 E0.9795 F800.0
G1 X208.335 Y52.012 Z61.602 E1.0122 F800.0
; layer 32
G92 E0
G1 X208.335 Y52.012 Z61.602 E0 F2000.0
G1 X201.86 Y50.742 Z62.189 E0.0244 F800.0
G1 X195.279 Y50.622 Z62.61 E0.0488 F800.0
G1 X188.775 Y50.393 Z63.194 E0.0731 F800.0
G1 X182.324 Y50.066 Z63.931 E0.0973 F800.0
G1 X175.918 Y49.701 Z64.781 E0.122 F800.0
G1 X170.07 Y50.864 Z65.136 E0.1448 F800.0
G1 X166.284 Y57.687 Z63.435 E0.1712 F800.0
G1 X162.93 Y65.814 Z61.603 E0.2002 F800.0
G1 X159.279 Y73.74 Z60.356 E0.2295 F800.0
G1 X155.287 Y81.731 Z59.687 E0.2599 F800.0
G1 X150.917 Y90.101 Z59.54 E0.2921 F800.0
G1 X146.546 Y98.98 Z59.7 E0.3264 F800.0
G1 X150.881 Y107.87 Z59.642 E0.3602 F800.0
G1 X155.232 Y116.269 Z59.895 E0.3923 F800.0
G1 X159.217 Y124.304 Z60.671 E0.4221 F800.0
G1 X162.868 Y132.287 Z62.03 E0.4506 F800.0
G1 X166.225 Y140.482 Z63.983 E0.4803 F800.0
G1 X170.018 Y147.379 Z65.809 E0.5112 F800.0
G1 X175.884 Y148.596 Z65.563 E0.534 F800.0
G1 X182.318 Y148.279 Z64.813 E0.5583 F800.0
G1 X188.807 Y148.0 Z64.173 E0.5825 F800.0
G1 X195.362 Y147.823 Z63.685 E0.6069 F800.0
G1 X202.005 Y147.754 Z63.36 E0.6314 F800.0
G1 X208.554 Y146.516 Z62.867 E0.6559 F800.0
G1 X214.134 Y139.645 Z61.241 E0.6864 F800.0
G1 X219.243 Y131.907 Z59.851 E0.718 F800.0
G1 X223.887 Y124.386 Z58.857 E0.7479 F800.0
G1 X228.095 Y116.603 Z57.966 E0.7774 F800.0
G1 X232.06 Y108.14 Z57.183 E0.8082 F800.0
G1 X235.713 Y98.98 Z56.749 E0.8403 F800.0
G1 X232.093 Y89.81 Z57.281 E0.8727 F800.0
G1 X228.159 Y81.321 Z58.166 E0.9039 F800.0
G1 X223.978 Y73.502 Z59.16 E0.9338 F800.0
G1 X219.354 Y65.93 Z60.26 E0.9638 F800.0
G1 X214.252 Y58.119 Z61.76 E0.9957 F800.0
G1 X208.664 Y51.158 Z63.499 E1.029 F800.0
; layer 33
G92 E0
G1 X208.664 Y51.158 Z63.499 E0 F2000.0
G1 X202.097 Y49.864 Z64.105 E0.0248 F800.0
G1 X195.427 Y49.749 Z64.545 E0.0495 F800.0
G1 X188.839 Y49.525 Z65.152 E0.0741 F800.0
G1 X182.31 Y49.2 Z65.915 E0.0986 F800.0
G1 X175.83 Y48.834 Z66.791 E0.1236 F800.0
G1 X169.914 Y50.015 Z67.156 E0.1467 F800.0
G1 X166.071 Y56.934 Z65.408 E0.1734 F800.0
G1 X162.649 Y65.181 Z63.527 E0.2028 F800.0
G1 X158.906 Y73.235 Z62.247 E0.2326 F800.0
G1 X154.792 Y81.37 Z61.556 E0.2637 F800.0
G1 X150.267 Y89.907 Z61.387 E0.2967 F800.0
G1 X145.703 Y98.98 Z61.502 E0.3318 F800.0
G1 X150.231 Y108.063 Z61.489 E0.3665 F800.0
G1 X154.737 Y116.629 Z61.764 E0.3994 F800.0
G1 X158.844 Y124.808 Z62.562 E0.4298 F800.0
G1 X162.587 Y132.919 Z63.954 E0.4588 F800.0
G1 X166.012 Y141.234 Z65.956 E0.4889 F800.0
G1 X169.862 Y148.227 Z67.83 E0.5202 F800.0
G1 X175.796 Y149.462 Z67.573 E0.5434 F800.0
G1 X182.303 Y149.145 Z66.797 E0.5679 F800.0
G1 X188.871 Y148.869 Z66.131 E0.5924 F800.0
G1 X195.51 Y148.695 Z65.62 E0.6171 F800.0
G1 X202.241 Y148.632 Z65.275 E0.642 F800.0
G1 X208.883 Y147.37 Z64.763 E0.6668 F800.0
G1 X214.558 Y140.349 Z63.111 E0.6979 F800.0
G1 X219.743 Y132.459 Z61.694 E0.7301 F800.0
G1 X224.434 Y124.818 Z60.678 E0.7604 F800.0
G1 X228.671 Y116.92 Z59.766 E0.7903 F800.0
G1 X232.68 Y108.325 Z58.954 E0.8215 F800.0
G1 X236.395 Y98.98 Z58.493 E0.8543 F800.0
G1 X232.715 Y89.624 Z59.053 E0.8873 F800.0
G1 X228.735 Y81.005 Z59.966 E0.9189 F800.0
G1 X224.525 Y73.069 Z60.981 E0.9492 F800.0
G1 X219.854 Y65.378 Z62.104 E0.9797 F800.0
G1 X214.676 Y57.414 Z63.63 E1.0122 F800.0
G1 X208.993 Y50.304 Z65.396 E1.0461 F800.0
; layer 34
G92 E0
G1 X208.993 Y50.304 Z65.396 E0 F2000.0
G1 X202.333 Y48.987 Z66.02 E0.0252 F800.0
G1 X195.575 Y48.876 Z66.479 E0.0502 F800.0
G1 X188.903 Y48.657 Z67.11 E0.0751 F800.0
G1 X182.295 Y48.334 Z67.899 E0.0999 F800.0
G1 X175.742 Y47.968 Z68.801 E0.1252 F800.0
G1 X169.758 Y49.167 Z69.177 E0.1485 F800.0
G1 X165.858 Y56.182 Z67.381 E0.1756 F800.0
G1 X162.369 Y64.548 Z65.45 E0.2055 F800.0
G1 X158.533 Y72.731 Z64.138 E0.2358 F800.0
G1 X154.297 Y81.01 Z63.425 E0.2675 F800.0
G1 X149.603 Y89.703 Z63.227 E0.3012 F800.0
G1 X144.803 Y98.98 Z63.276 E0.3374 F800.0
G1 X149.565 Y108.269 Z63.329 E0.3731 F800.0
G1 X154.241 Y116.99 Z63.633 E0.4066 F800.0
G1 X158.471 Y125.313 Z64.453 E0.4377 F800.0
G1 X162.306 Y133.552 Z65.878 E0.4672 F800.0
G1 X165.799 Y141.986 Z67.929 E0.4977 F800.0
G1 X169.706 Y149.075 Z69.85 E0.5295 F800.0
G1 X175.707 Y150.329 Z69.583 E0.5529 F800.0
G1 X182.289 Y150.011 Z68.781 E0.5777 F800.0
G1 X188.935 Y149.737 Z68.089 E0.6026 F800.0
G1 X195.658 Y149.568 Z67.554 E0.6275 F800.0
G1 X202.478 Y149.509 Z67.19 E0.6527 F800.0
G1 X209.213 Y148.224 Z66.66 E0.6779 F800.0
G1 X214.982 Y141.054 Z64.98 E0.7096 F800.0
G1 X220.243 Y133.01 Z63.538 E0.7424 F800.0
G1 X224.98 Y125.25 Z62.499 E0.7731 F800.0
G1 X229.255 Y117.249 Z61.56 E0.8033 F800.0
G1 X233.316 Y108.523 Z60.719 E0.835 F800.0
G1 X237.078 Y98.98 Z60.236 E0.8685 F800.0
G1 X233.352 Y89.425 Z60.817 E0.9022 F800.0
G1 X229.321 Y80.674 Z61.759 E0.9342 F800.0
G1 X225.071 Y72.637 Z62.803 E0.9649 F800.0
G1 X220.355 Y64.827 Z63.948 E0.9958 F800.0
G1 X215.1 Y56.71 Z65.499 E1.0288 F800.0
G1 X209.322 Y49.451 Z67.292 E1.0635 F800.0
; layer 35
G92 E0
G1 X209.322 Y49.451 Z67.292 E0 F2000.0
G1 X202.57 Y48.109 Z67.935 E0.0255 F800.0
G1 X195.723 Y48.004 Z68.414 E0.0509 F800.0
G1 X188.966 Y47.789 Z69.068 E0.0761 F800.0
G1 X182.281 Y47.468 Z69.883 E0.1012 F800.0
G1 X175.653 Y47.101 Z70.811 E0.1268 F800.0
G1 X169.603 Y48.319 Z71.197 E0.1504 F800.0
G1 X165.645 Y55.43 Z69.354 E0.1778 F800.0
G1 X162.088 Y63.915 Z67.374 E0.2081 F800.0
G1 X158.16 Y72.226 Z66.029 E0.239 F800.0
G1 X153.794 Y80.638 Z65.29 E0.2713 F800.0
G1 X148.905 Y89.474 Z65.052 E0.3058 F800.0
G1 X143.904 Y98.98 Z65.05 E0.343 F800.0
G1 X148.866 Y108.498 Z65.153 E0.3797 F800.0
G1 X153.736 Y117.366 Z65.496 E0.414 F800.0
G1 X158.098 Y125.817 Z66.344 E0.4456 F800.0
G1 X162.026 Y134.185 Z67.802 E0.4756 F800.0
G1 X165.586 Y142.738 Z69.902 E0.5066 F800.0
G1 X169.551 Y149.924 Z71.87 E0.5388 F800.0
G1 X175.619 Y151.196 Z71.593 E0.5625 F800.0
G1 X182.274 Y150.877 Z70.765 E0.5875 F800.0
G1 X188.998 Y150.605 Z70.047 E0.6127 F800.0
G1 X195.806 Y150.441 Z69.489 E0.638 F800.0
G1 X202.713 Y150.398 Z69.1 E0.6635 F800.0
G1 X209.544 Y149.136 Z68.527 E0.689 F800.0
G1 X215.411 Y141.779 Z66.84 E0.7213 F800.0
G1 X220.749 Y133.573 Z65.377 E0.7546 F800.0
G1 X225.541 Y125.704 Z64.31 E0.7857 F800.0
G1 X229.855 Y117.6 Z63.346 E0.8163 F800.0
G1 X233.955 Y108.724 Z62.483 E0.8485 F800.0
G1 X237.761 Y98.98 Z61.98 E0.8827 F800.0
G1 X233.991 Y89.224 Z62.581 E0.917 F800.0
G1 X229.922 Y80.32 Z63.544 E0.9496 F800.0
G1 X225.635 Y72.179 Z64.612 E0.9805 F800.0
G1 X220.862 Y64.261 Z65.785 E1.0118 F800.0
G1 X215.53 Y55.977 Z67.356 E1.0454 F800.0
G1 X209.654 Y48.51 Z69.144 E1.0808 F800.0
; layer 36
G92 E0
G1 X209.654 Y48.51 Z69.144 E0 F2000.0
G1 X202.805 Y47.209 Z69.839 E0.0258 F800.0
G1 X195.87 Y47.125 Z70.346 E0.0516 F800.0
G1 X189.029 Y46.916 Z71.025 E0.0771 F800.0
G1 X182.265 Y46.599 Z71.865 E0.1025 F800.0
G1 X175.562 Y46.229 Z72.819 E0.1283 F800.0
G1 X169.442 Y47.463 Z73.214 E0.1522 F800.0
G1 X165.429 Y54.674 Z71.325 E0.18 F800.0
G1 X161.804 Y63.278 Z69.296 E0.2107 F800.0
G1 X157.779 Y71.709 Z67.915 E0.242 F800.0
G1 X153.27 Y80.233 Z67.141 E0.2749 F800.0
G1 X148.2 Y89.24 Z66.874 E0.3102 F800.0
G1 X143.004 Y98.98 Z66.824 E0.3484 F800.0
G1 X148.16 Y108.732 Z66.975 E0.3861 F800.0
G1 X153.211 Y117.774 Z67.346 E0.4212 F800.0
G1 X157.712 Y126.344 Z68.226 E0.4533 F800.0
G1 X161.739 Y134.827 Z69.721 E0.4837 F800.0
G1 X165.366 Y143.501 Z71.87 E0.5151 F800.0
G1 X169.382 Y150.794 Z73.879 E0.5478 F800.0
G1 X175.521 Y152.081 Z73.594 E0.5718 F800.0
G1 X182.254 Y151.758 Z72.741 E0.5971 F800.0
G1 X189.054 Y151.501 Z71.992 E0.6225 F800.0
G1 X195.942 Y151.377 Z71.393 E0.6481 F800.0
G1 X202.941 Y151.394 Z70.955 E0.6739 F800.0
G1 X209.878 Y150.135 Z70.349 E0.6998 F800.0
G1 X215.853 Y142.574 Z68.668 E0.7327 F800.0
G1 X221.274 Y134.175 Z67.198 E0.7666 F800.0
G1 X226.114 Y126.176 Z66.113 E0.7981 F800.0
G1 X230.458 Y117.956 Z65.129 E0.8291 F800.0
G1 X234.594 Y108.925 Z64.246 E0.8618 F800.0
G1 X238.444 Y98.98 Z63.723 E0.8966 F800.0
G1 X234.63 Y89.023 Z64.344 E0.9316 F800.0
G1 X230.525 Y79.964 Z65.327 E0.9647 F800.0
G1 X226.21 Y71.704 Z66.413 E0.996 F800.0
G1 X221.392 Y63.647 Z67.601 E1.0277 F800.0
G1 X215.978 Y55.158 Z69.173 E1.0617 F800.0
G1 X209.99 Y47.481 Z70.951 E1.098 F800.0
; layer 37
G92 E0
G1 X209.99 Y47.481 Z70.951 E0 F2000.0
G1 X203.028 Y46.157 Z71.666 E0.0263 F800.0
G1 X195.999 Y46.146 Z72.228 E0.0523 F800.0
G1 X189.077 Y45.992 Z72.956 E0.0781 F800.0
G1 X182.235 Y45.694 Z73.83 E0.1038 F800.0
G1 X175.45 Y45.316 Z74.805 E0.1299 F800.0
G1 X169.253 Y46.559 Z75.205 E0.1541 F800.0
G1 X165.193 Y53.886 Z73.28 E0.1821 F800.0
G1 X161.501 Y62.611 Z71.204 E0.2132 F800.0
G1 X157.372 Y71.148 Z69.782 E0.2449 F800.0
G1 X152.737 Y79.812 Z68.987 E0.2783 F800.0
G1 X147.494 Y89.006 Z68.695 E0.3145 F800.0
G1 X142.104 Y98.98 Z68.598 E0.3537 F800.0
G1 X147.455 Y108.966 Z68.796 E0.3925 F800.0
G1 X152.677 Y118.194 Z69.192 E0.4284 F800.0
G1 X157.303 Y126.907 Z70.093 E0.461 F800.0
G1 X161.427 Y135.506 Z71.624 E0.4917 F800.0
G1 X165.116 Y144.308 Z73.815 E0.5233 F800.0
G1 X169.178 Y151.721 Z75.859 E0.5566 F800.0
G1 X175.391 Y153.03 Z75.563 E0.5808 F800.0
G1 X182.205 Y152.711 Z74.683 E0.6063 F800.0
G1 X189.088 Y152.476 Z73.899 E0.6321 F800.0
G1 X196.065 Y152.389 Z73.259 E0.658 F800.0
G1 X203.164 Y152.446 Z72.782 E0.6842 F800.0
G1 X210.213 Y151.164 Z72.156 E0.7106 F800.0
G1 X216.301 Y143.395 Z70.484 E0.7442 F800.0
G1 X221.806 Y134.792 Z69.012 E0.7788 F800.0
G1 X226.69 Y126.652 Z67.914 E0.8108 F800.0
G1 X231.061 Y118.313 Z66.912 E0.8421 F800.0
G1 X235.234 Y109.127 Z66.01 E0.8753 F800.0
G1 X239.124 Y98.98 Z65.468 E0.9108 F800.0
G1 X235.269 Y88.822 Z66.108 E0.9465 F800.0
G1 X231.128 Y79.607 Z67.11 E0.9801 F800.0
G1 X226.786 Y71.228 Z68.214 E1.0118 F800.0
G1 X221.924 Y63.031 Z69.415 E1.0439 F800.0
G1 X216.426 Y54.336 Z70.988 E1.0787 F800.0
G1 X210.325 Y46.453 Z72.758 E1.1158 F800.0
; layer 38
G92 E0
G1 X210.325 Y46.453 Z72.758 E0 F2000.0
G1 X203.251 Y45.104 Z73.493 E0.0267 F800.0
G1 X196.118 Y45.111 Z74.083 E0.0532 F800.0
G1 X189.099 Y44.975 Z74.842 E0.0793 F800.0
G1 X182.168 Y44.693 Z75.748 E0.1052 F800.0
G1 X175.299 Y44.324 Z76.753 E0.1317 F800.0
G1 X169.028 Y45.597 Z77.167 E0.1562 F800.0
G1 X164.917 Y53.04 Z75.206 E0.1844 F800.0
G1 X161.168 Y61.902 Z73.093 E0.2158 F800.0
G1 X156.959 Y70.576 Z71.646 E0.248 F800.0
G1 X152.203 Y79.392 Z70.832 E0.2821 F800.0
G1 X146.789 Y88.772 Z70.517 E0.3191 F800.0
G1 X141.203 Y98.98 Z70.371 E0.3594 F800.0
G1 X146.75 Y109.2 Z70.618 E0.3991 F800.0
G1 X152.144 Y118.614 Z71.037 E0.4359 F800.0
G1 X156.89 Y127.479 Z71.956 E0.4691 F800.0
G1 X161.095 Y136.215 Z73.512 E0.5002 F800.0
G1 X164.841 Y145.155 Z75.741 E0.5321 F800.0
G1 X168.953 Y152.684 Z77.821 E0.5659 F800.0
G1 X175.24 Y154.021 Z77.51 E0.5904 F800.0
G1 X182.138 Y153.712 Z76.601 E0.6163 F800.0
G1 X189.11 Y153.493 Z75.785 E0.6423 F800.0
G1 X196.183 Y153.424 Z75.114 E0.6686 F800.0
G1 X203.387 Y153.499 Z74.609 E0.6953 F800.0
G1 X210.549 Y152.193 Z73.963 E0.722 F800.0
G1 X216.749 Y144.217 Z72.299 E0.7564 F800.0
G1 X222.338 Y135.408 Z70.826 E0.7918 F800.0
G1 X227.265 Y127.128 Z69.715 E0.8242 F800.0
G1 X231.664 Y118.669 Z68.695 E0.856 F800.0
G1 X235.873 Y109.328 Z67.773 E0.8897 F800.0
G1 X239.802 Y98.98 Z67.214 E0.9258 F800.0
G1 X235.908 Y88.621 Z67.871 E0.9622 F800.0
G1 X231.731 Y79.251 Z68.893 E0.9963 F800.0
G1 X227.361 Y70.752 Z70.015 E1.0284 F800.0
G1 X222.456 Y62.415 Z71.229 E1.061 F800.0
G1 X216.874 Y53.514 Z72.803 E1.0966 F800.0
G1 X210.661 Y45.424 Z74.565 E1.1345 F800.0
; layer 39
G92 E0
G1 X210.661 Y45.424 Z74.565 E0 F2000.0
G1 X203.474 Y44.052 Z75.32 E0.0271 F800.0
G1 X196.236 Y44.076 Z75.938 E0.054 F800.0
G1 X189.121 Y43.959 Z76.728 E0.0805 F800.0
G1 X182.1 Y43.691 Z77.666 E0.1067 F800.0
G1 X175.147 Y43.332 Z78.7 E0.1336 F800.0
G1 X168.803 Y44.635 Z79.129 E0.1584 F800.0
G1 X164.642 Y52.193 Z77.133 E0.187 F800.0
G1 X160.836 Y61.193 Z74.981 E0.2188 F800.0
G1 X156.545 Y70.004 Z73.509 E0.2515 F800.0
G1 X151.67 Y78.972 Z72.678 E0.2863 F800.0
G1 X146.081 Y88.536 Z72.337 E0.3242 F800.0
G1 X140.3 Y98.98 Z72.144 E0.3655 F800.0
G1 X146.041 Y109.437 Z72.438 E0.4063 F800.0
G1 X151.61 Y119.035 Z72.883 E0.4439 F800.0
G1 X156.476 Y128.051 Z73.82 E0.4777 F800.0
G1 X160.762 Y136.924 Z75.401 E0.5093 F800.0
G1 X164.566 Y146.002 Z77.668 E0.5418 F800.0
G1 X168.728 Y153.646 Z79.783 E0.576 F800.0
G1 X175.088 Y155.013 Z79.458 E0.6008 F800.0
G1 X182.07 Y154.714 Z78.519 E0.627 F800.0
G1 X189.132 Y154.509 Z77.671 E0.6534 F800.0
G1 X196.302 Y154.459 Z76.969 E0.68 F800.0
G1 X203.61 Y154.551 Z76.436 E0.7071 F800.0
G1 X210.884 Y153.221 Z75.77 E0.7343 F800.0
G1 X217.197 Y145.039 Z74.114 E0.7695 F800.0
G1 X222.87 Y136.024 Z72.641 E0.8055 F800.0
G1 X227.841 Y127.605 Z71.516 E0.8385 F800.0
G1 X232.266 Y119.025 Z70.479 E0.8706 F800.0
G1 X236.523 Y109.539 Z69.532 E0.9049 F800.0
G1 X240.479 Y98.98 Z68.959 E0.9416 F800.0
G1 X236.56 Y88.408 Z69.629 E0.9787 F800.0
G1 X232.333 Y78.895 Z70.677 E1.0133 F800.0
G1 X227.937 Y70.276 Z71.816 E1.0458 F800.0
G1 X222.988 Y61.798 Z73.044 E1.0789 F800.0
G1 X217.322 Y52.692 Z74.619 E1.1152 F800.0
G1 X210.996 Y44.396 Z76.372 E1.154 F800.0
; layer 40
G92 E0
G1 X210.996 Y44.396 Z76.372 E0 F2000.0
G1 X203.697 Y42.999 Z77.146 E0.0276 F800.0
G1 X196.355 Y43.041 Z77.794 E0.0548 F800.0
G1 X189.143 Y42.942 Z78.614 E0.0817 F800.0
G1 X182.033 Y42.69 Z79.584 E0.1083 F800.0
G1 X174.995 Y42.341 Z80.648 E0.1354 F800.0
G1 X168.579 Y43.672 Z81.091 E0.1605 F800.0
G1 X164.367 Y51.346 Z79.059 E0.1896 F800.0
G1 X160.504 Y60.484 Z76.87 E0.2219 F800.0
G1 X156.131 Y69.432 Z75.372 E0.2551 F800.0
G1 X151.136 Y78.551 Z74.524 E0.2905 F800.0
G1 X145.363 Y88.29 Z74.152 E0.3292 F800.0
G1 X139.397 Y98.98 Z73.916 E0.3716 F800.0
G1 X145.322 Y109.684 Z74.252 E0.4135 F800.0
G1 X151.077 Y119.455 Z74.729 E0.4519 F800.0
G1 X156.062 Y128.623 Z75.683 E0.4864 F800.0
G1 X160.43 Y137.634 Z77.29 E0.5185 F800.0
G1 X164.29 Y146.848 Z79.594 E0.5514 F800.0
G1 X168.504 Y154.608 Z81.745 E0.5861 F800.0
G1 X174.936 Y156.005 Z81.405 E0.6112 F800.0
G1 X182.003 Y155.715 Z80.437 E0.6377 F800.0
G1 X189.154 Y155.526 Z79.558 E0.6645 F800.0
G1 X196.421 Y155.494 Z78.824 E0.6915 F800.0
G1 X203.833 Y155.604 Z78.263 E0.7189 F800.0
G1 X211.219 Y154.25 Z77.577 E0.7465 F800.0
G1 X217.645 Y145.861 Z75.93 E0.7825 F800.0
G1 X223.402 Y136.64 Z74.455 E0.8193 F800.0
G1 X228.417 Y128.081 Z73.317 E0.8527 F800.0
G1 X232.874 Y119.389 Z72.259 E0.8853 F800.0
G1 X237.178 Y109.754 Z71.288 E0.92 F800.0
G1 X241.156 Y98.98 Z70.705 E0.9575 F800.0
G1 X237.214 Y88.193 Z71.385 E0.9952 F800.0
G1 X232.942 Y78.53 Z72.456 E1.0303 F800.0
G1 X228.513 Y69.799 Z73.617 E1.0632 F800.0
G1 X223.52 Y61.182 Z74.858 E1.0968 F800.0
G1 X217.77 Y51.87 Z76.434 E1.1339 F800.0
G1 X211.331 Y43.367 Z78.179 E1.1735 F800.0
; layer 41
G92 E0
G1 X211.331 Y43.367 Z78.179 E0 F2000.0
G1 X203.92 Y41.947 Z78.973 E0.028 F800.0
G1 X196.473 Y42.006 Z79.649 E0.0556 F800.0
G1 X189.165 Y41.926 Z80.501 E0.0829 F800.0
G1 X181.965 Y41.688 Z81.502 E0.1098 F800.0
G1 X174.844 Y41.349 Z82.595 E0.1373 F800.0
G1 X168.354 Y42.71 Z83.053 E0.1627 F800.0
G1 X164.092 Y50.5 Z80.985 E0.1921 F800.0
G1 X160.172 Y59.774 Z78.758 E0.2249 F800.0
G1 X155.718 Y68.861 Z77.236 E0.2587 F800.0
G1 X150.6 Y78.125 Z76.367 E0.2947 F800.0
G1 X144.634 Y88.034 Z75.961 E0.3343 F800.0
G1 X138.494 Y98.98 Z75.688 E0.3777 F800.0
G1 X144.593 Y109.94 Z76.062 E0.4206 F800.0
G1 X150.54 Y119.883 Z76.572 E0.4599 F800.0
G1 X155.649 Y129.194 Z77.546 E0.495 F800.0
G1 X160.098 Y138.343 Z79.178 E0.5276 F800.0
G1 X164.015 Y147.695 Z81.521 E0.561 F800.0
G1 X168.279 Y155.57 Z83.707 E0.5962 F800.0
G1 X174.785 Y156.996 Z83.353 E0.6216 F800.0
G1 X181.935 Y156.716 Z82.355 E0.6485 F800.0
G1 X189.177 Y156.542 Z81.444 E0.6755 F800.0
G1 X196.539 Y156.528 Z80.679 E0.7029 F800.0
G1 X204.056 Y156.656 Z80.09 E0.7307 F800.0
G1 X211.555 Y155.311 Z79.364 E0.7588 F800.0
G1 X218.095 Y146.694 Z77.739 E0.7955 F800.0
G1 X223.936 Y137.261 Z76.267 E0.8331 F800.0
G1 X228.999 Y128.566 Z75.114 E0.867 F800.0
G1 X233.489 Y119.762 Z74.034 E0.8999 F800.0
G1 X237.833 Y109.97 Z73.044 E0.9351 F800.0
G1 X241.833 Y98.98 Z72.451 E0.9733 F800.0
G1 X237.869 Y87.978 Z73.141 E1.0117 F800.0
G1 X233.558 Y78.156 Z74.231 E1.0473 F800.0
G1 X229.097 Y69.312 Z75.413 E1.0806 F800.0
G1 X224.054 Y60.561 Z76.67 E1.1146 F800.0
G1 X218.22 Y51.033 Z78.241 E1.1524 F800.0
G1 X211.667 Y42.289 Z79.956 E1.193 F800.0
; layer 42
G92 E0
G1 X211.667 Y42.289 Z79.956 E0 F2000.0
G1 X204.143 Y40.892 Z80.799 E0.0284 F800.0
G1 X196.592 Y40.97 Z81.503 E0.0564 F800.0
G1 X189.188 Y40.909 Z82.387 E0.084 F800.0
G1 X181.898 Y40.687 Z83.42 E0.1113 F800.0
G1 X174.692 Y40.357 Z84.543 E0.1391 F800.0
G1 X168.129 Y41.748 Z85.015 E0.1648 F800.0
G1 X163.816 Y49.653 Z82.912 E0.1946 F800.0
G1 X159.839 Y59.065 Z80.647 E0.2279 F800.0
G1 X155.303 Y68.287 Z79.098 E0.2622 F800.0
G1 X150.056 Y77.683 Z78.205 E0.2988 F800.0
G1 X143.904 Y87.778 Z77.77 E0.3393 F800.0
G1 X137.631 Y98.98 Z77.459 E0.3833 F800.0
G1 X143.864 Y110.196 Z77.871 E0.4272 F800.0
G1 X149.995 Y120.327 Z78.408 E0.4673 F800.0
G1 X155.234 Y129.769 Z79.408 E0.503 F800.0
G1 X159.765 Y139.052 Z81.067 E0.5361 F800.0
G1 X163.74 Y148.542 Z83.447 E0.5699 F800.0
G1 X168.054 Y156.532 Z85.669 E0.6057 F800.0
G1 X174.633 Y157.988 Z85.3 E0.6314 F800.0
G1 X181.868 Y157.718 Z84.273 E0.6585 F800.0
G1 X189.199 Y157.559 Z83.33 E0.6859 F800.0
G1 X196.656 Y157.576 Z82.527 E0.7137 F800.0
G1 X204.274 Y157.764 Z81.883 E0.7419 F800.0
G1 X211.892 Y156.418 Z81.123 E0.7704 F800.0
G1 X218.552 Y147.564 Z79.529 E0.8079 F800.0
G1 X224.48 Y137.902 Z78.069 E0.8462 F800.0
G1 X229.588 Y129.061 Z76.905 E0.8805 F800.0
G1 X234.105 Y120.138 Z75.809 E0.9138 F800.0
G1 X238.487 Y110.185 Z74.8 E0.9496 F800.0
G1 X242.089 Y98.98 Z74.15 E0.9849 F800.0
G1 X238.524 Y87.762 Z74.898 E1.0235 F800.0
G1 X234.174 Y77.78 Z76.006 E1.0596 F800.0
G1 X229.687 Y68.815 Z77.203 E1.0933 F800.0
G1 X224.602 Y59.913 Z78.468 E1.1278 F800.0
G1 X218.68 Y50.15 Z80.025 E1.1663 F800.0
G1 X212.004 Y41.168 Z81.706 E1.2078 F800.0
; layer 43
G92 E0
G1 X212.004 Y41.168 Z81.706 E0 F2000.0
G1 X204.358 Y39.752 Z82.573 E0.0289 F800.0
G1 X196.706 Y39.911 Z83.344 E0.0573 F800.0
G1 X189.208 Y39.889 Z84.271 E0.0852 F800.0
G1 X181.83 Y39.684 Z85.337 E0.1128 F800.0
G1 X174.54 Y39.366 Z86.49 E0.141 F800.0
G1 X167.904 Y40.786 Z86.977 E0.167 F800.0
G1 X163.541 Y48.807 Z84.838 E0.1972 F800.0
G1 X159.505 Y58.353 Z82.534 E0.2309 F800.0
G1 X154.882 Y67.701 Z80.955 E0.2657 F800.0
G1 X149.508 Y77.232 Z80.039 E0.3029 F800.0
G1 X143.175 Y87.522 Z79.58 E0.3443 F800.0
G1 X137.46 Y98.98 Z79.201 E0.3833 F800.0
G1 X143.135 Y110.452 Z79.68 E0.4271 F800.0
G1 X149.447 Y120.778 Z80.243 E0.4681 F800.0
G1 X154.81 Y130.359 Z81.264 E0.5043 F800.0
G1 X159.43 Y139.766 Z82.953 E0.5379 F800.0
G1 X163.465 Y149.388 Z85.373 E0.5722 F800.0
G1 X167.829 Y157.494 Z87.631 E0.6084 F800.0
G1 X174.481 Y158.98 Z87.247 E0.6345 F800.0
G1 X181.797 Y158.728 Z86.186 E0.6619 F800.0
G1 X189.213 Y158.603 Z85.201 E0.6896 F800.0
G1 X196.763 Y158.669 Z84.349 E0.7177 F800.0
G1 X204.489 Y158.906 Z83.656 E0.7463 F800.0
G1 X212.229 Y157.54 Z82.873 E0.7753 F800.0
G1 X219.012 Y148.449 Z81.312 E0.8136 F800.0
G1 X225.028 Y138.551 Z79.867 E0.8528 F800.0
G1 X230.179 Y129.559 Z78.695 E0.8876 F800.0
G1 X234.721 Y120.513 Z77.584 E0.9213 F800.0
G1 X239.142 Y110.401 Z76.556 E0.9576 F800.0
G1 X241.246 Y98.98 Z75.726 E0.9931 F800.0
G1 X239.179 Y87.547 Z76.654 E1.0313 F800.0
G1 X234.79 Y77.405 Z77.781 E1.068 F800.0
G1 X230.278 Y68.318 Z78.994 E1.102 F800.0
G1 X225.15 Y59.264 Z80.266 E1.1371 F800.0
G1 X219.14 Y49.265 Z81.807 E1.1764 F800.0
G1 X212.341 Y40.046 Z83.456 E1.2188 F800.0
; layer 44
G92 E0
G1 X212.341 Y40.046 Z83.456 E0 F2000.0
G1 X204.572 Y38.609 Z84.346 E0.0293 F800.0
G1 X196.809 Y38.794 Z85.152 E0.0582 F800.0
G1 X189.216 Y38.822 Z86.129 E0.0865 F800.0
G1 X181.754 Y38.661 Z87.244 E0.1144 F800.0
G1 X174.384 Y38.365 Z88.433 E0.1428 F800.0
G1 X167.675 Y39.816 Z88.935 E0.1691 F800.0
G1 X163.261 Y47.952 Z86.76 E0.1997 F800.0
G1 X159.162 Y57.628 Z84.415 E0.2339 F800.0
G1 X154.452 Y67.097 Z82.805 E0.2691 F800.0
G1 X148.96 Y76.781 Z81.873 E0.3069 F800.0
G1 X142.446 Y87.266 Z81.389 E0.3492 F800.0
G1 X138.509 Y98.98 Z80.891 E0.3905 F800.0
G1 X142.406 Y110.708 Z81.489 E0.4328 F800.0
G1 X148.899 Y121.229 Z82.077 E0.4747 F800.0
G1 X154.38 Y130.963 Z83.113 E0.5116 F800.0
G1 X159.083 Y140.497 Z84.83 E0.5455 F800.0
G1 X163.177 Y150.254 Z87.289 E0.5802 F800.0
G1 X167.59 Y158.481 Z89.579 E0.6169 F800.0
G1 X174.313 Y160.003 Z89.177 E0.6432 F800.0
G1 X181.713 Y159.772 Z88.08 E0.671 F800.0
G1 X189.217 Y159.683 Z87.052 E0.699 F800.0
G1 X196.866 Y159.786 Z86.157 E0.7275 F800.0
G1 X204.703 Y160.049 Z85.429 E0.7565 F800.0
G1 X212.566 Y158.662 Z84.623 E0.7859 F800.0
G1 X219.472 Y149.334 Z83.095 E0.8252 F800.0
G1 X225.577 Y139.201 Z81.664 E0.8652 F800.0
G1 X230.77 Y130.056 Z80.486 E0.9005 F800.0
G1 X235.338 Y120.889 Z79.359 E0.9346 F800.0
G1 X239.483 Y110.526 Z78.27 E0.9687 F800.0
G1 X240.2 Y98.98 Z77.279 E1.006 F800.0
G1 X239.498 Y87.428 Z78.365 E1.0411 F800.0
G1 X235.406 Y77.029 Z79.556 E1.0782 F800.0
G1 X230.868 Y67.821 Z80.784 E1.1127 F800.0
G1 X225.699 Y58.615 Z82.064 E1.1483 F800.0
G1 X219.6 Y48.38 Z83.59 E1.1885 F800.0
G1 X212.678 Y38.924 Z85.207 E1.2318 F800.0
; layer 45
G92 E0
G1 X212.678 Y38.924 Z85.207 E0 F2000.0
G1 X204.787 Y37.466 Z86.118 E0.0298 F800.0
G1 X196.912 Y37.678 Z86.96 E0.0591 F800.0
G1 X189.217 Y37.732 Z87.974 E0.0877 F800.0
G1 X181.661 Y37.595 Z89.125 E0.116 F800.0
G1 X174.202 Y37.314 Z90.346 E0.1448 F800.0
G1 X167.419 Y38.804 Z90.868 E0.1714 F800.0
G1 X162.958 Y47.064 Z88.664 E0.2023 F800.0
G1 X158.806 Y56.883 Z86.285 E0.2368 F800.0
G1 X154.021 Y66.493 Z84.654 E0.2725 F800.0
G1 X148.412 Y76.33 Z83.707 E0.311 F800.0
G1 X142.194 Y87.146 Z83.159 E0.35 F800.0
G1 X139.557 Y98.98 Z82.581 E0.3911 F800.0
G1 X142.24 Y110.802 Z83.252 E0.4285 F800.0
G1 X148.351 Y121.68 Z83.911 E0.4708 F800.0
G1 X153.949 Y131.567 Z84.962 E0.5082 F800.0
G1 X158.727 Y141.242 Z86.701 E0.5426 F800.0
G1 X162.874 Y151.143 Z89.192 E0.5777 F800.0
G1 X167.334 Y159.494 Z91.511 E0.6149 F800.0
G1 X174.132 Y161.054 Z91.091 E0.6416 F800.0
G1 X181.62 Y160.839 Z89.961 E0.6696 F800.0
G1 X189.218 Y160.772 Z88.897 E0.698 F800.0
G1 X196.969 Y160.902 Z87.965 E0.7269 F800.0
G1 X204.918 Y161.192 Z87.201 E0.7564 F800.0
G1 X212.903 Y159.783 Z86.373 E0.7862 F800.0
G1 X219.932 Y150.218 Z84.877 E0.8264 F800.0
G1 X226.125 Y139.85 Z83.462 E0.8672 F800.0
G1 X231.361 Y130.553 Z82.276 E0.9031 F800.0
G1 X235.954 Y121.264 Z81.133 E0.9375 F800.0
G1 X238.67 Y110.32 Z79.831 E0.9721 F800.0
G1 X239.154 Y98.98 Z78.832 E1.009 F800.0
G1 X238.61 Y87.656 Z79.916 E1.0443 F800.0
G1 X236.022 Y76.654 Z81.331 E1.0819 F800.0
G1 X231.459 Y67.323 Z82.575 E1.1168 F800.0
G1 X226.247 Y57.965 Z83.862 E1.1529 F800.0
G1 X220.06 Y47.495 Z85.372 E1.1939 F800.0
G1 X213.015 Y37.802 Z86.957 E1.2382 F800.0
; layer 46
G92 E0
G1 X213.015 Y37.802 Z86.957 E0 F2000.0
G1 X205.001 Y36.323 Z87.891 E0.0303 F800.0
G1 X197.015 Y36.561 Z88.769 E0.06 F800.0
G1 X189.218 Y36.642 Z89.82 E0.089 F800.0
G1 X181.568 Y36.528 Z91.006 E0.1176 F800.0
G1 X174.021 Y36.264 Z92.26 E0.1467 F800.0
G1 X167.163 Y37.789 Z92.799 E0.1737 F800.0
G1 X162.654 Y46.174 Z90.566 E0.205 F800.0
G1 X158.451 Y56.139 Z88.156 E0.24 F800.0
G1 X153.59 Y65.89 Z86.503 E0.2763 F800.0
G1 X147.864 Y75.879 Z85.541 E0.3154 F800.0
G1 X143.082 Y87.355 Z84.835 E0.3562 F800.0
G1 X140.606 Y98.98 Z84.271 E0.3968 F800.0
G1 X143.139 Y110.591 Z84.927 E0.4358 F800.0
G1 X147.803 Y122.13 Z85.745 E0.478 F800.0
G1 X153.519 Y132.171 Z86.812 E0.5161 F800.0
G1 X158.372 Y141.986 Z88.572 E0.5509 F800.0
G1 X162.57 Y152.033 Z91.095 E0.5865 F800.0
G1 X167.077 Y160.509 Z93.443 E0.6243 F800.0
G1 X173.95 Y162.104 Z93.004 E0.6512 F800.0
G1 X181.527 Y161.906 Z91.842 E0.6796 F800.0
G1 X189.219 Y161.862 Z90.742 E0.7083 F800.0
G1 X197.072 Y162.019 Z89.773 E0.7376 F800.0
G1 X205.132 Y162.336 Z88.974 E0.7675 F800.0
G1 X213.239 Y160.905 Z88.124 E0.7978 F800.0
G1 X220.392 Y151.103 Z86.66 E0.839 F800.0
G1 X226.673 Y140.499 Z85.26 E0.8806 F800.0
G1 X231.951 Y131.051 Z84.067 E0.917 F800.0
G1 X235.998 Y121.309 Z82.806 E0.9477 F800.0
G1 X237.596 Y110.039 Z81.357 E0.9852 F800.0
G1 X238.108 Y98.98 Z80.385 E1.0212 F800.0
G1 X237.537 Y87.937 Z81.441 E1.0575 F800.0
G1 X235.985 Y76.656 Z82.989 E1.0904 F800.0
G1 X232.05 Y66.826 Z84.365 E1.126 F800.0
G1 X226.795 Y57.316 Z85.66 E1.1627 F800.0
G1 X220.519 Y46.611 Z87.155 E1.2046 F800.0
G1 X213.352 Y36.68 Z88.707 E1.2499 F800.0
; layer 47
G92 E0
G1 X213.352 Y36.68 Z88.707 E0 F2000.0
G1 X205.216 Y35.179 Z89.663 E0.0307 F800.0
G1 X197.118 Y35.445 Z90.577 E0.0609 F800.0
G1 X189.219 Y35.553 Z91.665 E0.0903 F800.0
G1 X181.475 Y35.461 Z92.887 E0.1192 F800.0
G1 X173.839 Y35.213 Z94.174 E0.1487 F800.0
G1 X166.906 Y36.774 Z94.73 E0.176 F800.0
G1 X162.35 Y45.284 Z92.469 E0.2077 F800.0
G1 X158.095 Y55.395 Z90.027 E0.2432 F800.0
G1 X153.16 Y65.286 Z88.353 E0.28 F800.0
G1 X147.542 Y75.575 Z87.343 E0.3177 F800.0
G1 X144.101 Y87.601 Z86.5 E0.3602 F800.0
G1 X141.655 Y98.98 Z85.962 E0.4 F800.0
G1 X144.157 Y110.345 Z86.592 E0.4396 F800.0
G1 X147.572 Y122.376 Z87.534 E0.4789 F800.0
G1 X153.088 Y132.774 Z88.661 E0.5177 F800.0
G1 X158.016 Y142.73 Z90.443 E0.5531 F800.0
G1 X162.266 Y152.923 Z92.997 E0.5891 F800.0
G1 X166.821 Y161.524 Z95.374 E0.6274 F800.0
G1 X173.769 Y163.155 Z94.918 E0.6547 F800.0
G1 X181.434 Y162.973 Z93.724 E0.6834 F800.0
G1 X189.22 Y162.952 Z92.587 E0.7125 F800.0
G1 X197.175 Y163.135 Z91.581 E0.7422 F800.0
G1 X205.347 Y163.479 Z90.746 E0.7725 F800.0
G1 X213.342 Y161.163 Z89.733 E0.7963 F800.0
G1 X220.719 Y151.703 Z88.387 E0.8339 F800.0
G1 X227.222 Y141.149 Z87.058 E0.8758 F800.0
G1 X232.081 Y131.142 Z85.749 E0.9085 F800.0
G1 X235.142 Y120.833 Z84.318 E0.9424 F800.0
G1 X236.523 Y109.758 Z82.882 E0.9793 F800.0
G1 X237.062 Y98.98 Z81.938 E1.0143 F800.0
G1 X236.464 Y88.218 Z82.967 E1.0499 F800.0
G1 X235.023 Y77.193 Z84.482 E1.0859 F800.0
G1 X232.077 Y66.825 Z86.024 E1.1171 F800.0
G1 X227.344 Y56.667 Z87.457 E1.155 F800.0
G1 X220.794 Y46.124 Z88.86 E1.1928 F800.0
G1 X213.338 Y36.855 Z90.247 E1.2251 F800.0
; layer 48
G92 E0
G1 X213.338 Y36.855 Z90.247 E0 F2000.0
G1 X205.422 Y34.09 Z91.426 E0.0307 F800.0
G1 X197.221 Y34.328 Z92.385 E0.0612 F800.0
G1 X189.22 Y34.463 Z93.51 E0.0911 F800.0
G1 X181.382 Y34.394 Z94.769 E0.1203 F800.0
G1 X173.658 Y34.163 Z96.088 E0.1502 F800.0
G1 X166.649 Y35.76 Z96.662 E0.1778 F800.0
G1 X162.046 Y44.394 Z94.371 E0.2099 F800.0
G1 X157.74 Y54.65 Z91.898 E0.2459 F800.0
G1 X152.729 Y64.682 Z90.202 E0.2833 F800.0
G1 X148.009 Y75.781 Z89.032 E0.3203 F800.0
G1 X145.119 Y87.847 Z88.165 E0.3627 F800.0
G1 X142.704 Y98.98 Z87.652 E0.4017 F800.0
G1 X145.176 Y110.099 Z88.257 E0.4406 F800.0
G1 X148.118 Y122.119 Z89.212 E0.4789 F800.0
G1 X152.658 Y133.378 Z90.51 E0.519 F800.0
G1 X157.661 Y143.475 Z92.313 E0.5549 F800.0
G1 X161.962 Y153.813 Z94.899 E0.5914 F800.0
G1 X166.564 Y162.538 Z97.306 E0.6302 F800.0
G1 X173.587 Y164.205 Z96.832 E0.6578 F800.0
G1 X181.341 Y164.04 Z95.605 E0.6868 F800.0
G1 X189.221 Y164.041 Z94.433 E0.7163 F800.0
G1 X197.278 Y164.252 Z93.389 E0.7464 F800.0
G1 X205.364 Y163.395 Z92.305 E0.7686 F800.0
G1 X213.071 Y160.037 Z91.119 E0.7939 F800.0
G1 X220.377 Y150.865 Z89.837 E0.8281 F800.0
G1 X226.78 Y140.496 Z88.554 E0.8639 F800.0
G1 X231.331 Y130.459 Z87.226 E0.8982 F800.0
G1 X234.074 Y120.234 Z85.792 E0.9334 F800.0
G1 X235.45 Y109.477 Z84.408 E0.9693 F800.0
G1 X236.015 Y98.98 Z83.491 E1.0035 F800.0
G1 X235.39 Y88.499 Z84.493 E1.0381 F800.0
G1 X233.956 Y77.792 Z85.956 E1.0741 F800.0
G1 X231.166 Y67.649 Z87.462 E1.1085 F800.0
G1 X226.597 Y57.72 Z88.861 E1.144 F800.0
G1 X220.207 Y47.488 Z90.209 E1.1838 F800.0
G1 X212.937 Y38.456 Z91.555 E1.223 F800.0
; layer 49
G92 E0
G1 X212.937 Y38.456 Z91.555 E0 F2000.0
G1 X205.323 Y34.891 Z92.859 E0.024 F800.0
G1 X197.317 Y33.318 Z94.172 E0.0535 F800.0
G1 X189.221 Y33.374 Z95.355 E0.0837 F800.0
G1 X181.289 Y33.327 Z96.65 E0.1133 F800.0
G1 X173.476 Y33.112 Z98.002 E0.1435 F800.0
G1 X166.393 Y34.745 Z98.593 E0.1714 F800.0
G1 X161.743 Y43.504 Z96.273 E0.204 F800.0
G1 X157.384 Y53.906 Z93.768 E0.2405 F800.0
G1 X152.479 Y64.273 Z92.009 E0.2767 F800.0
G1 X148.993 Y76.321 Z90.647 E0.3197 F800.0
G1 X146.138 Y88.093 Z89.83 E0.3612 F800.0
G1 X143.753 Y98.98 Z89.342 E0.3993 F800.0
G1 X146.194 Y109.853 Z89.922 E0.4374 F800.0
G1 X149.102 Y121.579 Z90.827 E0.4788 F800.0
G1 X152.528 Y133.657 Z92.289 E0.5171 F800.0
G1 X157.305 Y144.219 Z94.184 E0.554 F800.0
G1 X161.658 Y154.703 Z96.802 E0.5911 F800.0
G1 X166.307 Y163.553 Z99.237 E0.6304 F800.0
G1 X173.406 Y165.256 Z98.746 E0.6583 F800.0
G1 X181.248 Y165.107 Z97.486 E0.6877 F800.0
G1 X189.222 Y165.131 Z96.278 E0.7175 F800.0
G1 X197.308 Y164.199 Z94.965 E0.74 F800.0
G1 X205.177 Y162.047 Z93.642 E0.7672 F800.0
G1 X212.67 Y158.436 Z92.426 E0.7954 F800.0
G1 X219.765 Y149.448 Z91.176 E0.8336 F800.0
G1 X225.949 Y139.332 Z89.931 E0.8732 F800.0
G1 X230.34 Y129.564 Z88.646 E0.9089 F800.0
G1 X233.007 Y119.636 Z87.266 E0.9432 F800.0
G1 X234.376 Y109.196 Z85.934 E0.978 F800.0
G1 X234.971 Y98.98 Z85.046 E1.0112 F800.0
G1 X234.317 Y88.78 Z86.019 E1.0449 F800.0
G1 X232.888 Y78.39 Z87.43 E1.0799 F800.0
G1 X230.174 Y68.545 Z88.882 E1.1142 F800.0
G1 X225.763 Y58.887 Z90.237 E1.1498 F800.0
G1 X219.596 Y48.905 Z91.547 E1.1891 F800.0
G1 X212.537 Y40.058 Z92.862 E1.2274 F800.0
; layer 50
G92 E0
G1 X212.537 Y40.058 Z92.862 E0 F2000.0
G1 X205.084 Y36.563 Z94.14 E0.0304 F800.0
G1 X197.297 Y34.166 Z95.589 E0.054 F800.0
G1 X189.229 Y32.458 Z97.16 E0.0833 F800.0
G1 X181.196 Y32.26 Z98.531 E0.1133 F800.0
G1 X173.295 Y32.062 Z99.916 E0.1439 F800.0
G1 X166.136 Y33.73 Z100.525 E0.1721 F800.0
G1 X161.439 Y42.614 Z98.176 E0.2051 F800.0
G1 X157.05 Y53.197 Z95.63 E0.2419 F800.0
G1 X152.932 Y64.623 Z93.652 E0.279 F800.0
G1 X149.976 Y76.861 Z92.263 E0.3222 F800.0
G1 X147.156 Y88.339 Z91.495 E0.3626 F800.0
G1 X144.802 Y98.98 Z91.032 E0.3999 F800.0
G1 X147.213 Y109.607 Z91.588 E0.4372 F800.0
G1 X150.085 Y121.039 Z92.442 E0.4775 F800.0
G1 X153.088 Y133.191 Z93.906 E0.5163 F800.0
G1 X156.993 Y144.892 Z96.038 E0.5551 F800.0
G1 X161.354 Y155.593 Z98.704 E0.5928 F800.0
G1 X166.051 Y164.567 Z101.168 E0.6326 F800.0
G1 X173.224 Y166.307 Z100.66 E0.6608 F800.0
G1 X181.155 Y166.174 Z99.367 E0.6905 F800.0
G1 X189.265 Y165.001 Z97.842 E0.7131 F800.0
G1 X197.255 Y162.835 Z96.279 E0.7409 F800.0
G1 X204.938 Y160.374 Z94.923 E0.7707 F800.0
G1 X212.27 Y156.834 Z93.734 E0.7982 F800.0
G1 X219.154 Y148.032 Z92.514 E0.8354 F800.0
G1 X225.115 Y138.164 Z91.308 E0.874 F800.0
G1 X229.348 Y128.668 Z90.066 E0.9087 F800.0
G1 X231.94 Y119.038 Z88.741 E0.9419 F800.0
G1 X233.303 Y108.91 Z87.459 E0.9757 F800.0
G1 X233.928 Y98.98 Z86.601 E1.008 F800.0
G1 X233.243 Y89.066 Z87.543 E1.0407 F800.0
G1 X231.821 Y78.988 Z88.904 E1.0747 F800.0
G1 X229.183 Y69.441 Z90.302 E1.1079 F800.0
G1 X224.93 Y60.055 Z91.614 E1.1425 F800.0
G1 X218.984 Y50.321 Z92.886 E1.1806 F800.0
G1 X212.136 Y41.659 Z94.17 E1.218 F800.0
; layer 51
G92 E0
G1 X212.136 Y41.659 Z94.17 E0 F2000.0
G1 X204.845 Y38.236 Z95.421 E0.0298 F800.0
G1 X197.222 Y35.892 Z96.831 E0.0596 F800.0
G1 X189.305 Y33.525 Z98.509 E0.0848 F800.0
G1 X181.143 Y31.495 Z100.332 E0.1136 F800.0
G1 X173.147 Y31.16 Z101.785 E0.143 F800.0
G1 X165.889 Y32.746 Z102.446 E0.1712 F800.0
G1 X161.193 Y41.858 Z100.039 E0.2038 F800.0
G1 X157.043 Y53.014 Z97.364 E0.239 F800.0
G1 X153.866 Y65.493 Z95.181 E0.2831 F800.0
G1 X150.96 Y77.401 Z93.878 E0.3251 F800.0
G1 X148.175 Y88.585 Z93.16 E0.3646 F800.0
G1 X145.851 Y98.98 Z92.723 E0.401 F800.0
G1 X148.231 Y109.361 Z93.253 E0.4374 F800.0
G1 X151.069 Y120.498 Z94.057 E0.4767 F800.0
G1 X154.022 Y132.321 Z95.436 E0.5182 F800.0
G1 X157.236 Y144.673 Z97.673 E0.5553 F800.0
G1 X161.193 Y156.159 Z100.513 E0.5924 F800.0
G1 X165.823 Y165.491 Z103.07 E0.6321 F800.0
G1 X173.171 Y166.79 Z102.403 E0.6557 F800.0
G1 X181.26 Y165.732 Z100.848 E0.678 F800.0
G1 X189.355 Y163.543 Z99.101 E0.7065 F800.0
G1 X197.18 Y161.109 Z97.521 E0.7372 F800.0
G1 X204.699 Y158.702 Z96.204 E0.7664 F800.0
G1 X211.87 Y155.233 Z95.042 E0.7933 F800.0
G1 X218.543 Y146.615 Z93.853 E0.8295 F800.0
G1 X224.281 Y136.996 Z92.685 E0.8669 F800.0
G1 X228.356 Y127.773 Z91.485 E0.9006 F800.0
G1 X230.872 Y118.438 Z90.214 E0.9328 F800.0
G1 X232.229 Y108.615 Z88.982 E0.9655 F800.0
G1 X232.886 Y98.98 Z88.156 E0.9969 F800.0
G1 X232.17 Y89.361 Z89.066 E1.0287 F800.0
G1 X230.753 Y79.588 Z90.377 E1.0616 F800.0
G1 X228.191 Y70.336 Z91.722 E1.0938 F800.0
G1 X224.096 Y61.223 Z92.991 E1.1273 F800.0
G1 X218.373 Y51.738 Z94.224 E1.1643 F800.0
G1 X211.736 Y43.261 Z95.478 E1.2006 F800.0
; layer 52
G92 E0
G1 X211.736 Y43.261 Z95.478 E0 F2000.0
G1 X204.606 Y39.908 Z96.702 E0.0291 F800.0
G1 X197.147 Y37.618 Z98.073 E0.0583 F800.0
G1 X189.405 Y35.308 Z99.692 E0.0886 F800.0
G1 X181.409 Y33.165 Z101.488 E0.1182 F800.0
G1 X173.268 Y31.44 Z103.299 E0.1411 F800.0
G1 X165.835 Y32.358 Z104.176 E0.1643 F800.0
G1 X161.344 Y42.0 Z101.644 E0.1945 F800.0
G1 X157.91 Y54.238 Z98.753 E0.2379 F800.0
G1 X154.801 Y66.363 Z96.711 E0.2807 F800.0
G1 X151.943 Y77.941 Z95.493 E0.3215 F800.0
G1 X149.194 Y88.832 Z94.825 E0.36 F800.0
G1 X146.899 Y98.98 Z94.413 E0.3956 F800.0
G1 X149.251 Y109.113 Z94.917 E0.4311 F800.0
G1 X152.052 Y119.958 Z95.672 E0.4694 F800.0
G1 X154.957 Y131.451 Z96.966 E0.5097 F800.0
G1 X158.103 Y143.449 Z99.062 E0.5517 F800.0
G1 X161.56 Y155.523 Z101.974 E0.5883 F800.0
G1 X166.056 Y164.991 Z104.514 E0.6173 F800.0
G1 X173.456 Y165.793 Z103.702 E0.6388 F800.0
G1 X181.537 Y163.979 Z101.981 E0.669 F800.0
G1 X189.456 Y161.759 Z100.284 E0.6998 F800.0
G1 X197.105 Y159.383 Z98.763 E0.7297 F800.0
G1 X204.46 Y157.03 Z97.485 E0.7583 F800.0
G1 X211.469 Y153.631 Z96.35 E0.7845 F800.0
G1 X217.931 Y145.199 Z95.191 E0.8198 F800.0
G1 X223.447 Y135.828 Z94.061 E0.8561 F800.0
G1 X227.363 Y126.874 Z92.903 E0.8887 F800.0
G1 X229.802 Y117.825 Z91.68 E0.9199 F800.0
G1 X231.156 Y108.319 Z90.504 E0.9516 F800.0
G1 X231.843 Y98.98 Z89.712 E0.982 F800.0
G1 X231.096 Y89.657 Z90.589 E1.0128 F800.0
G1 X229.683 Y80.203 Z91.843 E1.0447 F800.0
G1 X227.198 Y71.235 Z93.139 E1.0759 F800.0
G1 X223.262 Y62.391 Z94.367 E1.1083 F800.0
G1 X217.762 Y53.154 Z95.563 E1.1441 F800.0
G1 X211.336 Y44.862 Z96.786 E1.1795 F800.0
; layer 53
G92 E0
G1 X211.336 Y44.862 Z96.786 E0 F2000.0
G1 X204.367 Y41.58 Z97.983 E0.0285 F800.0
G1 X197.072 Y39.343 Z99.315 E0.057 F800.0
G1 X189.506 Y37.092 Z100.876 E0.0866 F800.0
G1 X181.697 Y35.0 Z102.599 E0.1169 F800.0
G1 X173.751 Y33.308 Z104.335 E0.1473 F800.0
G1 X166.499 Y34.19 Z105.19 E0.1715 F800.0
G1 X162.124 Y43.573 Z102.834 E0.206 F800.0
G1 X158.777 Y55.463 Z100.142 E0.248 F800.0
G1 X155.735 Y67.233 Z98.24 E0.2895 F800.0
G1 X152.927 Y78.481 Z97.108 E0.3292 F800.0
G1 X150.215 Y89.085 Z96.487 E0.3667 F800.0
G1 X147.946 Y98.98 Z96.104 E0.4014 F800.0
G1 X150.272 Y108.86 Z96.579 E0.4361 F800.0
G1 X153.036 Y119.418 Z97.287 E0.4734 F800.0
G1 X155.891 Y130.581 Z98.495 E0.5125 F800.0
G1 X158.97 Y142.225 Z100.451 E0.5532 F800.0
G1 X162.341 Y153.949 Z103.165 E0.5939 F800.0
G1 X166.72 Y163.159 Z105.528 E0.6286 F800.0
G1 X173.938 Y163.924 Z104.738 E0.6552 F800.0
G1 X181.825 Y162.144 Z103.093 E0.6853 F800.0
G1 X189.557 Y159.976 Z101.468 E0.7154 F800.0
G1 X197.03 Y157.657 Z100.005 E0.7447 F800.0
G1 X204.22 Y155.358 Z98.766 E0.7725 F800.0
G1 X211.069 Y152.029 Z97.657 E0.7982 F800.0
G1 X217.318 Y143.778 Z96.524 E0.8324 F800.0
G1 X222.609 Y134.652 Z95.428 E0.8675 F800.0
G1 X226.367 Y125.964 Z94.31 E0.8991 F800.0
G1 X228.731 Y117.209 Z93.144 E0.9292 F800.0
G1 X230.082 Y108.023 Z92.027 E0.9599 F800.0
G1 X230.8 Y98.98 Z91.267 E0.9894 F800.0
G1 X230.023 Y89.953 Z92.112 E1.0192 F800.0
G1 X228.612 Y80.819 Z93.307 E1.05 F800.0
G1 X226.201 Y72.148 Z94.544 E1.0801 F800.0
G1 X222.422 Y63.569 Z95.731 E1.1115 F800.0
G1 X217.148 Y54.577 Z96.893 E1.1461 F800.0
G1 X210.935 Y46.465 Z98.092 E1.1805 F800.0
; layer 54
G92 E0
G1 X210.935 Y46.465 Z98.092 E0 F2000.0
G1 X204.127 Y43.253 Z99.264 E0.0278 F800.0
G1 X196.997 Y41.069 Z100.557 E0.0557 F800.0
G1 X189.607 Y38.875 Z102.06 E0.0846 F800.0
G1 X181.985 Y36.835 Z103.71 E0.1141 F800.0
G1 X174.233 Y35.177 Z105.371 E0.1437 F800.0
G1 X167.162 Y36.022 Z106.204 E0.1673 F800.0
G1 X162.904 Y45.147 Z104.025 E0.2006 F800.0
G1 X159.644 Y56.687 Z101.532 E0.2412 F800.0
G1 X156.67 Y68.103 Z99.77 E0.2814 F800.0
G1 X153.911 Y79.026 Z98.721 E0.32 F800.0
G1 X151.238 Y89.34 Z98.148 E0.3565 F800.0
G1 X148.994 Y98.98 Z97.795 E0.3903 F800.0
G1 X151.295 Y108.605 Z98.241 E0.4241 F800.0
G1 X154.02 Y118.872 Z98.9 E0.4604 F800.0
G1 X156.826 Y129.711 Z100.025 E0.4984 F800.0
G1 X159.836 Y141.001 Z101.84 E0.5378 F800.0
G1 X163.121 Y152.375 Z104.356 E0.5771 F800.0
G1 X167.383 Y161.326 Z106.542 E0.6106 F800.0
G1 X174.421 Y162.056 Z105.774 E0.6365 F800.0
G1 X182.113 Y160.309 Z104.204 E0.6659 F800.0
G1 X189.658 Y158.192 Z102.651 E0.6951 F800.0
G1 X196.955 Y155.932 Z101.247 E0.7237 F800.0
G1 X203.983 Y153.679 Z100.04 E0.7509 F800.0
G1 X210.67 Y150.409 Z98.942 E0.7758 F800.0
G1 X216.7 Y142.345 Z97.841 E0.809 F800.0
G1 X221.767 Y133.468 Z96.786 E0.843 F800.0
G1 X225.37 Y125.051 Z95.715 E0.8735 F800.0
G1 X227.66 Y116.592 Z94.608 E0.9026 F800.0
G1 X229.009 Y107.726 Z93.55 E0.9322 F800.0
G1 X229.757 Y98.98 Z92.822 E0.9607 F800.0
G1 X228.949 Y90.25 Z93.635 E0.9896 F800.0
G1 X227.541 Y81.436 Z94.771 E1.0193 F800.0
G1 X225.203 Y73.061 Z95.949 E1.0484 F800.0
G1 X221.579 Y64.755 Z97.087 E1.0787 F800.0
G1 X216.527 Y56.014 Z98.206 E1.1121 F800.0
G1 X210.537 Y48.093 Z99.367 E1.1453 F800.0
; layer 55
G92 E0
G1 X210.537 Y48.093 Z99.367 E0 F2000.0
G1 X203.891 Y44.935 Z100.532 E0.0272 F800.0
G1 X196.922 Y42.796 Z101.798 E0.0545 F800.0
G1 X189.708 Y40.659 Z103.243 E0.0826 F800.0
G1 X182.273 Y38.671 Z104.821 E0.1114 F800.0
G1 X174.716 Y37.046 Z106.408 E0.1402 F800.0
G1 X167.826 Y37.855 Z107.218 E0.163 F800.0
G1 X163.684 Y46.721 Z105.215 E0.1953 F800.0
G1 X160.511 Y57.911 Z102.921 E0.2345 F800.0
G1 X157.605 Y68.976 Z101.298 E0.2734 F800.0
G1 X154.896 Y79.581 Z100.331 E0.3108 F800.0
G1 X152.26 Y89.596 Z99.81 E0.3463 F800.0
G1 X150.042 Y98.98 Z99.486 E0.3792 F800.0
G1 X152.317 Y108.349 Z99.902 E0.4122 F800.0
G1 X155.006 Y118.317 Z100.509 E0.4474 F800.0
G1 X157.76 Y128.837 Z101.552 E0.4843 F800.0
G1 X160.703 Y139.777 Z103.23 E0.5223 F800.0
G1 X163.901 Y150.801 Z105.546 E0.5603 F800.0
G1 X168.047 Y159.494 Z107.556 E0.5926 F800.0
G1 X174.903 Y160.187 Z106.811 E0.6178 F800.0
G1 X182.401 Y158.473 Z105.315 E0.6464 F800.0
G1 X189.759 Y156.409 Z103.835 E0.6749 F800.0
G1 X196.883 Y154.198 Z102.478 E0.7028 F800.0
G1 X203.749 Y151.987 Z101.294 E0.7294 F800.0
G1 X210.271 Y148.781 Z100.216 E0.7536 F800.0
G1 X216.079 Y140.908 Z99.153 E0.7858 F800.0
G1 X220.924 Y132.282 Z98.141 E0.8186 F800.0
G1 X224.372 Y124.138 Z97.119 E0.848 F800.0
G1 X226.589 Y115.976 Z96.073 E0.8761 F800.0
G1 X227.935 Y107.43 Z95.073 E0.9047 F800.0
G1 X228.717 Y98.98 Z94.379 E0.9322 F800.0
G1 X227.876 Y90.546 Z95.157 E0.9601 F800.0
G1 X226.47 Y82.052 Z96.235 E0.9888 F800.0
G1 X224.206 Y73.974 Z97.353 E1.0169 F800.0
G1 X220.736 Y65.941 Z98.442 E1.0461 F800.0
G1 X215.907 Y57.451 Z99.518 E1.0783 F800.0
G1 X210.138 Y49.721 Z100.641 E1.1105 F800.0
; layer 56
G92 E0
G1 X210.138 Y49.721 Z100.641 E0 F2000.0
G1 X203.658 Y46.634 Z101.779 E0.0265 F800.0
G1 X196.852 Y44.535 Z103.021 E0.0531 F800.0
G1 X189.81 Y42.444 Z104.425 E0.0806 F800.0
G1 X182.562 Y40.506 Z105.932 E0.1086 F800.0
G1 X175.198 Y38.915 Z107.444 E0.1366 F800.0
G1 X168.489 Y39.687 Z108.233 E0.1588 F800.0
G1 X164.464 Y48.295 Z106.406 E0.1899 F800.0
G1 X161.378 Y59.136 Z104.309 E0.2277 F800.0
G1 X158.54 Y69.858 Z102.821 E0.2653 F800.0
G1 X155.881 Y80.136 Z101.939 E0.3016 F800.0
G1 X153.283 Y89.851 Z101.471 E0.336 F800.0
G1 X151.089 Y98.98 Z101.177 E0.3681 F800.0
G1 X153.339 Y108.094 Z101.563 E0.4002 F800.0
G1 X155.991 Y117.762 Z102.118 E0.4344 F800.0
G1 X158.696 Y127.954 Z103.074 E0.4701 F800.0
G1 X161.57 Y138.55 Z104.617 E0.5068 F800.0
G1 X164.681 Y149.227 Z106.737 E0.5434 F800.0
G1 X168.71 Y157.662 Z108.571 E0.5746 F800.0
G1 X175.386 Y158.318 Z107.847 E0.599 F800.0
G1 X182.691 Y156.637 Z106.425 E0.6268 F800.0
G1 X189.864 Y154.617 Z105.006 E0.6546 F800.0
G1 X196.815 Y152.453 Z103.694 E0.6818 F800.0
G1 X203.516 Y150.288 Z102.541 E0.7077 F800.0
G1 X209.872 Y147.153 Z101.491 E0.7313 F800.0
G1 X215.459 Y139.471 Z100.466 E0.7625 F800.0
G1 X220.081 Y131.096 Z99.496 E0.7942 F800.0
G1 X223.374 Y123.224 Z98.524 E0.8225 F800.0
G1 X225.518 Y115.36 Z97.537 E0.8496 F800.0
G1 X226.862 Y107.124 Z96.593 E0.8772 F800.0
